!!!!SEGMENT: pl-cz--iii-454--003_maader-ludwik--litaniae-laurentanae-rosa-mystica.krn
!!!cenid: 17xx:989
!!!COM: Maader, Ludwik
!!!COM-rismid: pe30020328
!!!CDT: <1794->1798
!!!CNT:
!!!OPR: Litaniae Laurentanae
!!!OTL: Rosa mystica
!!!OMV: 003
!!!PDT:
!!!AGN: Sacred; Mass
!!!SMS-siglum: PL-CZ
!!!SMS-shelfmark: III-454
!!!SMS-shelfwork: 001-003 M
!!!SMS-variant:
!!!SMS-altvar:
!!!NIFC-rismid: 300000759
!!!URL-scan: http://repozytorium.nifc.pl/skany/pl-cz-nut--iii-454
!!!ONB-nifc: UWAGA: części Litanii: Kyrie, Sancta Maria, Rosa mystica, Salus infirmorum, Regina angelorum, Agnus Dei
!!!KEY: E-
!!!AIN: 1 alto 3 empty 2 oboe 1 organ 1 tenor 2 violn 1 vox
!!!key:
**kern	**fba	**dynam	**kern	**dynam	**kern	**dynam	**kern	**kern	**kern	**kern	**text	**kern	**kern	**kern	**kern
*part11	*part11	*part11	*part10	*part10	*part9	*part9	*part8	*part7	*part6	*part5	*part5	*part4	*part3	*part2	*part1
*staff11	*	*	*staff10	*	*staff9	*	*staff8	*staff7	*staff6	*staff5	*staff5	*staff4	*staff3	*staff2	*staff1
*I"Organo.	*	*	*I"Violino Secondo	*	*I"Violino Primo.	*	*I"Baſso	*I"Tenore	*I"Alto.	*I"Canto.	*	*I"Clarino 2do in D:	*I"Clarino Primo D.	*I"Oboe Secondo	*I"Oboe Primo
*I'Org	*	*	*I'Vl II	*	*I'Vl I	*	*I'B	*I'T	*I'A	*I'S	*	*I'Clno II in D	*I'Clno I in D	*I'Ob II	*I'Ob I
*ICklav	*	*	*ICstr	*	*ICstr	*	*ICvox	*ICvox	*ICvox	*ICvox	*	*ICbras	*ICbras	*ICww	*ICww
*Iorgan	*	*	*Ivioln	*	*Ivioln	*	*Iempty	*Itenor	*Ialto	*Ivox	*	*Iempty	*Iempty	*Ioboe	*Ioboe
*clefF4	*	*	*clefG2	*	*clefG2	*	*clefF4	*clefC4	*clefC3	*clefC1	*	*clefG2	*clefG2	*clefG2	*clefG2
*	*	*	*	*	*	*	*	*ITrd0c0	*	*	*	*ITrd-1c-2	*ITrd-1c-2	*	*
*k[b-e-a-]	*	*	*k[b-e-a-]	*	*k[b-e-a-]	*	*k[b-e-a-]	*k[b-e-a-]	*k[b-e-a-]	*k[b-e-a-]	*	*k[f#c#]	*k[f#c#]	*k[b-e-a-]	*k[b-e-a-]
*E-:	*	*	*E-:	*	*E-:	*	*E-:	*E-:	*E-:	*E-:	*	*	*	*E-:	*E-:
*M2/4	*	*	*M2/4	*	*M2/4	*	*M2/4	*M2/4	*M2/4	*M2/4	*	*M2/4	*M2/4	*M2/4	*M2/4
*	*	*	*	*	*	*below	*	*	*	*	*	*	*	*	*
!	!	!	!	!	!	!	!	!	!	!	!	!	!	!	!LO:TX:t=P:problem=4,8,16,32 middle&colon; global
!LO:TX:t=P:problem=kolejność znaków&colon; E- B- AA-, B- zamiast BB-	!	!	!	!	!	!	!	!	!	!LO:TX:t=P:znaki:problem=ee- zamiast e-	!	!	!	!	!LO:TX:t=P:p=pia:global:problem
!LO:TX:rj:a:t=Andante	!	!	!LO:TX:t=P:problem=kolejność znaków&colon; ee- a- b-	!	!	!	!	!	!	!LO:TX:rj:a:t=Tarde	!	!	!	!	!LO:TX:t=P:f=for:global:problem
!LO:TX:a:t=Solo.	!	!	!LO:TX:rj:a:t=Andante	!	!LO:TX:rj:a:t=Andante	!	!LO:SIC:s:o:v:t= t a nie tracet	!LO:SIC:s:o:v:t= t a nie tracet	!LO:SIC:s:o:v:t= t a nie tracet.	!LO:TX:a:t=Solo	!	!LO:SIC:s:o:v:t= t a nie tracent	!LO:SIC:s:o:v:t= t a nie tracet	!LO:SIC:s:o:v:t= t a nie tracet.	!LO:SIC:s:o:v:t= t a nie tracet.
8r	.	.	(16B-/LL	p	16b-\LL	.	8ryy	8ryy	8ryy	8r	.	8ryy	8ryy	8ryy	8ryy
.	.	.	16g/JJ)	.	16ee-\JJ	.	.	.	.	.	.	.	.	.	.
=1	=1	=1	=1	=1	=1	=1	=1	=1	=1	=1	=1	=1	=1	=1	=1
8E-\L	.	.	(8.g/L	.	8.ee-\L	.	2ryy	2ryy	2ryy	0r	.	2ryy	2ryy	2ryy	2ryy
8E-\	.	.	.	.	.	.	.	.	.	.	.	.	.	.	.
.	.	.	32a-/LL	.	32ff\LL	.	.	.	.	.	.	.	.	.	.
.	.	.	32g/JJJ)	.	32ee-\JJJ	.	.	.	.	.	.	.	.	.	.
8E-\J	.	.	8g/L	.	8ee-\L	.	.	.	.	.	.	.	.	.	.
8r	.	.	(16B-/L	.	16b-\L	.	.	.	.	.	.	.	.	.	.
.	.	.	16g/JJ)	.	16gg\JJ	.	.	.	.	.	.	.	.	.	.
=2	=2	=2	=2	=2	=2	=2	=2	=2	=2	=2	=2	=2	=2	=2	=2
!LO:TX:t=P:problem=mixed beam	!	!	!LO:TX:b:t=|	!	!	!	!	!	!	!	!	!	!	!	!
8BB-/L	.	.	16a-/LL	.	16aa-\LL	.	2ryy	2ryy	2ryy	.	.	2ryy	2ryy	2ryy	2ryy
!	!	!	!LO:TX:b:t=|	!	!LO:TX:t=P:problem=zapis łuku niejednoznaczny	!	!	!	!	!	!	!	!	!	!
.	.	.	16a-/	.	(16ff\	.	.	.	.	.	.	.	.	.	.
8BB-/	.	.	(16g/	.	16ee-\	.	.	.	.	.	.	.	.	.	.
.	.	.	16f/JJ)	.	16dd\JJ)	.	.	.	.	.	.	.	.	.	.
!	!	!	!LO:TX:b:t=|	!	!	!	!	!	!	!	!	!	!	!	!
8E-\J	.	.	16g/LL	.	8ee-\L	.	.	.	.	.	.	.	.	.	.
.	.	.	(16b-/	.	.	.	.	.	.	.	.	.	.	.	.
!	!	!	!	!	!LO:TUP:a:problem=klamra łukowa, kropka zamiast numeru	!	!	!	!	!	!	!	!	!	!
8r	.	.	16g/	.	24bb-\L	.	.	.	.	.	.	.	.	.	.
.	.	.	.	.	24gg\	.	.	.	.	.	.	.	.	.	.
.	.	.	16e-/JJ)	.	.	.	.	.	.	.	.	.	.	.	.
.	.	.	.	.	24ee-\JJ	.	.	.	.	.	.	.	.	.	.
=3	=3	=3	=3	=3	=3	=3	=3	=3	=3	=3	=3	=3	=3	=3	=3
2BB-/	.	.	(16b-/LL	.	16b-/LL	.	2ryy	2ryy	2ryy	.	.	2ryy	2ryy	2ryy	2ryy
.	.	.	16a-/	.	16a-/	.	.	.	.	.	.	.	.	.	.
.	.	.	16f/	.	16f/	.	.	.	.	.	.	.	.	.	.
.	.	.	16d/JJ)	.	16d/JJ	.	.	.	.	.	.	.	.	.	.
.	.	.	16B-/LL	.	16B-/LL	.	.	.	.	.	.	.	.	.	.
.	.	.	16A-/	.	16A-/	.	.	.	.	.	.	.	.	.	.
.	.	.	16f/	.	16f/	.	.	.	.	.	.	.	.	.	.
.	.	.	16A-/JJ	.	16A-/JJ	.	.	.	.	.	.	.	.	.	.
=4	=4	=4	=4	=4	=4	=4	=4	=4	=4	=4	=4	=4	=4	=4	=4
16r	.	.	8A-/L	.	8A-/L	.	2ryy	2ryy	2ryy	.	.	2ryy	2ryy	2ryy	2ryy
!LO:TX:a:t=|	!	!	!	!	!	!	!	!	!	!	!	!	!	!	!
16E-\LL	.	.	.	.	.	.	.	.	.	.	.	.	.	.	.
!LO:TX:a:t=|	!	!	!	!	!	!	!	!	!	!	!	!	!	!	!
16BB-\	.	.	8G/J	.	8G/J	.	.	.	.	.	.	.	.	.	.
!	!	!	!	!	!LO:LB:g=original	!	!	!	!	!	!	!	!	!	!
!LO:TX:a:t=|	!	!	!	!	!	!	!	!	!	!	!	!	!	!	!
16GG\JJ	.	.	.	.	.	.	.	.	.	.	.	.	.	.	.
8EE-/	.	.	8r	.	8r	.	.	.	.	.	.	.	.	.	.
!	!	!	!	!	!	!LO:DY:t=pia&colon;	!	!	!	!	!	!	!	!	!
8r	.	.	16B-/LL	f	16b-\LL	p	.	.	.	.	.	.	.	.	.
.	.	.	16g/JJ	.	16ee-\JJ	.	.	.	.	.	.	.	.	.	.
!	!	!	!LO:LB:g=original	!	!	!	!	!	!	!	!	!	!	!	!
=5	=5	=5	=5	=5	=5	=5	=5	=5	=5	=5	=5	=5	=5	=5	=5
!	!	!	!	!	!LO:SIC:s:o:v:t= t a nie tr	!	!	!	!	!	!	!	!	!	!
8E-\L	.	.	(8.g/L	.	8.ee-T\L	.	2ryy	2ryy	2ryy	0r	.	2ryy	2ryy	2ryy	2ryy
8E-\	.	.	.	.	.	.	.	.	.	.	.	.	.	.	.
.	.	.	32a-/LL	.	(32ff\LL	.	.	.	.	.	.	.	.	.	.
.	.	.	32g/JJJ)	.	32ee-\JJJ)	.	.	.	.	.	.	.	.	.	.
8E-\J	.	.	8g/L	.	8ee-\	.	.	.	.	.	.	.	.	.	.
8r	.	.	16B-/L	.	16b-\LL	.	.	.	.	.	.	.	.	.	.
.	.	.	16g/JJ	.	16gg\JJ	.	.	.	.	.	.	.	.	.	.
=6	=6	=6	=6	=6	=6	=6	=6	=6	=6	=6	=6	=6	=6	=6	=6
!LO:TX:t=P:problem=mixed beam	!	!	!	!	!	!	!	!	!	!	!	!	!	!	!
8BB-/L	.	.	8b-\L	.	(16bb-\LL	.	2ryy	2ryy	2ryy	.	.	2ryy	2ryy	2ryy	2ryy
.	.	.	.	.	16aa-\)	.	.	.	.	.	.	.	.	.	.
!	!	!	!	!	!LO:TX:a:t=|	!	!	!	!	!	!	!	!	!	!
8BB-/	.	.	16dd\L	.	16b-\	.	.	.	.	.	.	.	.	.	.
!	!	!	!	!	!LO:TX:a:t=|	!	!	!	!	!	!	!	!	!	!
.	.	.	16ff\JJ	.	16aa-\JJ	.	.	.	.	.	.	.	.	.	.
8E-\J	.	.	8ee-\	.	(16gg\LL	.	.	.	.	.	.	.	.	.	.
.	.	.	.	.	16bb-\)	.	.	.	.	.	.	.	.	.	.
8r	.	.	16r	.	16aa-'\	.	.	.	.	.	.	.	.	.	.
.	.	.	16b-\	f	16gg'\JJ	.	.	.	.	.	.	.	.	.	.
!LO:LB:g=original	!	!	!	!	!	!	!	!	!	!	!	!	!	!	!
=7	=7	=7	=7	=7	=7	=7	=7	=7	=7	=7	=7	=7	=7	=7	=7
8B-\L	.	.	(16b-/LL	.	(16gg\LL	.	2ryy	2ryy	2ryy	.	.	2ryy	2ryy	2ryy	2ryy
.	.	.	16a-/)	.	16ff\)	.	.	.	.	.	.	.	.	.	.
8e-\	.	.	(16a-/	.	16ff'\	.	.	.	.	.	.	.	.	.	.
.	.	.	16g/JJ)	.	16ee-'\JJ	.	.	.	.	.	.	.	.	.	.
8B-\	.	.	(16g/LL	.	(16ee-\LL	.	.	.	.	.	.	.	.	.	.
.	.	.	16f/)	.	16dd\)	.	.	.	.	.	.	.	.	.	.
8E-\J	.	.	(16f/	.	16dd'\	.	.	.	.	.	.	.	.	.	.
.	.	.	16g/JJ)	.	16ee-'\JJ	.	.	.	.	.	.	.	.	.	.
=8	=8	=8	=8	=8	=8	=8	=8	=8	=8	=8	=8	=8	=8	=8	=8
16r	.	.	(4g/	.	(4ee-\	.	2ryy	2ryy	2ryy	.	.	2ryy	2ryy	2ryy	2ryy
16B-\LL	.	.	.	.	.	.	.	.	.	.	.	.	.	.	.
16F\	.	.	.	.	.	.	.	.	.	.	.	.	.	.	.
16D\JJ	.	.	.	.	.	.	.	.	.	.	.	.	.	.	.
4BB-/	.	.	8f/)	.	8dd\)	.	.	.	.	.	.	.	.	.	.
.	.	.	8r	.	8r	.	.	.	.	.	.	.	.	.	.
=9	=9	=9	=9	=9	=9	=9	=9	=9	=9	=9	=9	=9	=9	=9	=9
4BB-/	7	.	16r	.	16r	.	2ryy	2ryy	2ryy	0r	.	2ryy	2ryy	2ryy	2ryy
!	!	!	!	!LO:DY:t=pia.	!	!LO:DY:t=piano	!	!	!	!	!	!	!	!	!
.	.	.	16f'/LL	p	(16ff\LL	p	.	.	.	.	.	.	.	.	.
.	.	.	(16e-/	.	16ee-\	.	.	.	.	.	.	.	.	.	.
.	.	.	16d/JJ)	.	16dd\JJ)	.	.	.	.	.	.	.	.	.	.
4r	.	.	(16c/LL	.	(16cc\LL	.	.	.	.	.	.	.	.	.	.
.	.	.	16B-/)	.	16b-\)	.	.	.	.	.	.	.	.	.	.
!	!	!	!	!	!LO:TX:a:t=|	!	!	!	!	!	!	!	!	!	!
.	.	.	16f'/	.	16ff\	.	.	.	.	.	.	.	.	.	.
!	!	!	!	!	!LO:TX:a:t=|	!	!	!	!	!	!	!	!	!	!
.	.	.	16a-'/JJ	.	16aa-\JJ	.	.	.	.	.	.	.	.	.	.
=10	=10	=10	=10	=10	=10	=10	=10	=10	=10	=10	=10	=10	=10	=10	=10
4E-\	.	.	16r	.	16r	.	2ryy	2ryy	2ryy	.	.	2ryy	2ryy	2ryy	2ryy
.	.	.	(16g/LL	.	(16gg\LL	.	.	.	.	.	.	.	.	.	.
.	.	.	16b-/	.	16bb-\	.	.	.	.	.	.	.	.	.	.
.	.	.	16g/JJ)	.	16gg\JJ)	.	.	.	.	.	.	.	.	.	.
!	!	!	!LO:LB:g=original	!	!LO:LB:g=original	!	!	!	!	!	!	!	!	!	!
4r	.	.	(16f/LL	.	(16ff\LL	.	.	.	.	.	.	.	.	.	.
.	.	.	16e-/)	.	16ee-\	.	.	.	.	.	.	.	.	.	.
.	.	.	16d'/	.	16dd\	.	.	.	.	.	.	.	.	.	.
.	.	.	16e-'/JJ	.	16ee-\JJ)	.	.	.	.	.	.	.	.	.	.
=11	=11	=11	=11	=11	=11	=11	=11	=11	=11	=11	=11	=11	=11	=11	=11
4BB-/	.	.	16r	.	16r	.	2ryy	2ryy	2ryy	.	.	2ryy	2ryy	2ryy	2ryy
!	!	!	!LO:TX:b:t=|	!	!LO:TX:a:t=|	!	!	!	!	!	!	!	!	!	!
.	.	.	16f/LL	.	(16ff\LL	.	.	.	.	.	.	.	.	.	.
.	.	.	(16e-/	.	16ee-\	.	.	.	.	.	.	.	.	.	.
.	.	.	16d/JJ)	.	16dd\JJ)	.	.	.	.	.	.	.	.	.	.
4r	.	.	(16c/LL	.	(16cc\LL	.	.	.	.	.	.	.	.	.	.
.	.	.	16B-/)	.	16b-\)	.	.	.	.	.	.	.	.	.	.
!	!	!	!LO:TX:b:t=|	!	!	!	!	!	!	!	!	!	!	!	!
.	.	.	16f/	.	16ff'\	.	.	.	.	.	.	.	.	.	.
!	!	!	!LO:TX:b:t=|	!	!	!	!	!	!	!	!	!	!	!	!
.	.	.	16a-/JJ	.	16aa-'\JJ	.	.	.	.	.	.	.	.	.	.
=12	=12	=12	=12	=12	=12	=12	=12	=12	=12	=12	=12	=12	=12	=12	=12
!LO:TX:t=P:problem=mixed beam	!	!	!	!	!	!	!	!	!	!	!	!	!	!	!
8E-\L	.	.	8g/L	.	16gg\LL	.	2ryy	2ryy	2ryy	.	.	2ryy	2ryy	2ryy	2ryy
.	.	.	.	.	16ee-\JJ	.	.	.	.	.	.	.	.	.	.
!	!	!	!LO:TUP:b:problem=klamra łukowa, łuczek zamiast numeru	!	!	!	!	!	!	!	!	!	!	!	!
.	.	.	.	.	8qdd/	.	.	.	.	.	.	.	.	.	.
8A-\	6	.	24a-/L	.	16cc\LL	.	.	.	.	.	.	.	.	.	.
.	.	.	24g/	.	.	.	.	.	.	.	.	.	.	.	.
.	.	.	.	.	32b-\L	.	.	.	.	.	.	.	.	.	.
.	.	.	24f/JJ	.	.	.	.	.	.	.	.	.	.	.	.
.	.	.	.	.	32a-\JJJ	.	.	.	.	.	.	.	.	.	.
8B-\	4	.	8e-/L	.	8g/L	.	.	.	.	.	.	.	.	.	.
8BB-/J	3	.	8d/J	.	8fT/J	.	.	.	.	.	.	.	.	.	.
=13	=13	=13	=13	=13	=13	=13	=13	=13	=13	=13	=13	=13	=13	=13	=13
!	!	!	!LO:TX:t=P:problem=mixed beam	!LO:DY:t=for.	!LO:TX:t=P:problem=mixed beam	!	!	!	!	!	!	!	!	!	!
8E-\	.	.	16e-/LL 16G/	f	16e-/LL	f	2ryy	2ryy	2ryy	0r	.	2ryy	2ryy	2ryy	2ryy
.	.	.	16gg\J	.	16gg\J	.	.	.	.	.	.	.	.	.	.
8r	.	.	8gg\J	.	8bb-\J	.	.	.	.	.	.	.	.	.	.
4B-\	6 4	.	16r	.	16r	.	.	.	.	.	.	.	.	.	.
.	.	.	16g/LL	p	(16gg\LL	p	.	.	.	.	.	.	.	.	.
.	.	.	16b-/	.	16bb-\	.	.	.	.	.	.	.	.	.	.
.	.	.	16en/JJ	.	16een\JJ)	.	.	.	.	.	.	.	.	.	.
=14	=14	=14	=14	=14	=14	=14	=14	=14	=14	=14	=14	=14	=14	=14	=14
!	!	!	!LO:TX:t=P:problem=zapis łuku niejednoznaczny	!	!	!	!	!	!	!	!	!	!	!	!
4A-\	6	.	(16f/LL	.	16ff\LL	.	2ryy	2ryy	2ryy	.	.	2ryy	2ryy	2ryy	2ryy
.	.	.	16g/	.	16gg\	.	.	.	.	.	.	.	.	.	.
.	.	.	16a-/	.	16aa-\	.	.	.	.	.	.	.	.	.	.
.	.	.	16f/JJ)	.	16ff\JJ	.	.	.	.	.	.	.	.	.	.
4B-\	.	.	16e-X/LL	.	16ee-X\LL	.	.	.	.	.	.	.	.	.	.
.	.	.	16d/	.	16dd\	.	.	.	.	.	.	.	.	.	.
.	.	.	16c/	.	16cc\	.	.	.	.	.	.	.	.	.	.
.	.	.	16B-/JJ	.	16b-\JJ	.	.	.	.	.	.	.	.	.	.
=15	=15	=15	=15	=15	=15	=15	=15	=15	=15	=15	=15	=15	=15	=15	=15
!	!	!	!LO:TX:t=P:problem=mixed beam	!	!	!	!	!	!	!	!	!	!	!	!
8E-\	.	.	16e-/LL 16G/	.	16.ee-\LL	f	2ryy	2ryy	2ryy	.	.	2ryy	2ryy	2ryy	2ryy
.	.	.	16gg\J	f	.	.	.	.	.	.	.	.	.	.	.
.	.	.	.	.	32gg\JK	.	.	.	.	.	.	.	.	.	.
8r	.	.	8bb-\J	.	8bb-\J	.	.	.	.	.	.	.	.	.	.
!	!	!	!LO:LB:g=original	!	!	!	!	!	!	!	!	!	!	!	!
4B-\	6 4	.	16r	.	16r	.	.	.	.	.	.	.	.	.	.
!	!	!	!	!	!	!LO:DY:t=pia&colon;	!	!	!	!	!	!	!	!	!
.	.	.	16g/LL	p	(16gg\LL	p	.	.	.	.	.	.	.	.	.
.	.	.	16b-/	.	16bb-\	.	.	.	.	.	.	.	.	.	.
.	.	.	16en/JJ	.	16een\JJ)	.	.	.	.	.	.	.	.	.	.
=16	=16	=16	=16	=16	=16	=16	=16	=16	=16	=16	=16	=16	=16	=16	=16
4A-\	6	.	16f/LL	.	16ff\LL	.	2ryy	2ryy	2ryy	.	.	2ryy	2ryy	2ryy	2ryy
.	.	.	16g/	.	16gg\	.	.	.	.	.	.	.	.	.	.
.	.	.	16a-/	.	16aa-\	.	.	.	.	.	.	.	.	.	.
.	.	.	16f/JJ	.	16ff\JJ	.	.	.	.	.	.	.	.	.	.
4B-\	.	.	16e-X/LL	.	(16ee-X\LL	.	.	.	.	.	.	.	.	.	.
.	.	.	16d/	.	16dd\	.	.	.	.	.	.	.	.	.	.
.	.	.	16c/	.	16cc\	.	.	.	.	.	.	.	.	.	.
.	.	.	16B-/JJ	.	16b-\JJ)	.	.	.	.	.	.	.	.	.	.
!LO:LB:g=original	!	!	!	!	!	!	!	!	!	!	!	!	!	!	!
=17	=17	=17	=17	=17	=17	=17	=17	=17	=17	=17	=17	=17	=17	=17	=17
!LO:TX:t=P:problem=mixed beam	!	!	!	!	!	!	!	!	!	!	!	!	!	!	!
8E-\L	.	.	16d/LL	.	16.dd\LL	f	2ryy	2ryy	2ryy	2r	.	2ryy	2ryy	2ryy	2ryy
.	.	.	16e-/JJ	f	.	.	.	.	.	.	.	.	.	.	.
.	.	.	.	.	32ee-\JJk	.	.	.	.	.	.	.	.	.	.
!	!	!	!LO:TUP:b:problem=klamra łukowa, łuczek zamiast numeru	!	!	!	!	!	!	!	!	!	!	!	!
.	.	.	.	.	8qdd/	.	.	.	.	.	.	.	.	.	.
8A-\	6	.	24a-/LL	.	16cc\LL	.	.	.	.	.	.	.	.	.	.
.	.	.	24g/	.	.	.	.	.	.	.	.	.	.	.	.
.	.	.	.	.	32b-\L	.	.	.	.	.	.	.	.	.	.
.	.	.	24f/JJ	.	.	.	.	.	.	.	.	.	.	.	.
.	.	.	.	.	32a-\JJJ	.	.	.	.	.	.	.	.	.	.
8B-\	4	.	8e-/L	.	8g/L	.	.	.	.	.	.	.	.	.	.
!	!	!	!	!	!LO:SIC:s:o:v:t= t a nie tr	!	!	!	!	!	!	!	!	!	!
8BB-/J	3	.	8d/J	.	8fT/J	.	.	.	.	.	.	.	.	.	.
=18	=18	=18	=18	=18	=18	=18	=18	=18	=18	=18	=18	=18	=18	=18	=18
!LO:TX:t=P:problem=mixed beam	!	!	!	!	!	!	!	!	!	!	!	!	!	!	!
8E-\L	.	.	4e-/ 4G/	.	4e-/ 4G/	.	2ryy	2ryy	2ryy	4r	.	2ryy	2ryy	2ryy	2ryy
8BB-\	.	.	.	.	.	.	.	.	.	.	.	.	.	.	.
8EE-/J	.	.	8r	.	8r	.	.	.	.	8r	.	.	.	.	.
!	!	!	!	!	!LO:TX:a:t=Soles vo[ces]	!	!	!	!	!	!	!	!	!	!
8r	.	.	16B-/LL	p	16b-\LL	p	.	.	.	16b-\	Ro-	.	.	.	.
.	.	.	16e-/JJ	.	16ee-\JJ	.	.	.	.	16ee-\	-sa	.	.	.	.
=19	=19	=19	=19	=19	=19	=19	=19	=19	=19	=19	=19	=19	=19	=19	=19
!	!	!LO:DY:t=pia&colon;	!	!	!LO:TX:b:t=voces	!	!	!	!	!	!	!	!	!	!
8E-\L	.	p	(8.g/L	.	8.ee-\L	.	2ryy	2ryy	2ryy	8.ee-\	Ro-	2ryy	2ryy	2ryy	2ryy
8E-\	.	.	.	.	.	.	.	.	.	.	.	.	.	.	.
!	!	!	!	!	!	!	!	!	!	!LO:N:vis=16	!	!	!	!	!
.	.	.	32a-/LL	.	(32ff\LL	.	.	.	.	32ff\LLL	.	.	.	.	.
!	!	!	!	!	!	!	!	!	!	!LO:SIC:s:v=32ee	!	!	!	!	!
!	!	!	!	!	!	!	!	!	!	!LO:N:vis=16	!	!	!	!	!
.	.	.	32g/JJJ)	.	32ee-\JJJ)	.	.	.	.	32dd\JJJ	.	.	.	.	.
8E-\J	.	.	8g/L	.	(8ee-\L	.	.	.	.	8ee-\	-sa	.	.	.	.
8r	.	.	16B-/L	.	16b-\L	.	.	.	.	16b-\	Ro-	.	.	.	.
.	.	.	16g/JJ	.	16gg\JJ)	.	.	.	.	16gg\	-sa	.	.	.	.
=20	=20	=20	=20	=20	=20	=20	=20	=20	=20	=20	=20	=20	=20	=20	=20
!LO:TX:t=P:problem=mixed beam	!	!	!	!	!	!	!	!	!	!	!	!	!	!	!
8BB-/L	.	.	16f/LL	.	16aa-\LL	.	2ryy	2ryy	2ryy	16aa-\LL	mÿ-	2ryy	2ryy	2ryy	2ryy
.	.	.	16a-/	.	16ff\	.	.	.	.	16ff\JJ	.	.	.	.	.
8BB-/	.	.	16g/	.	16ee-\	.	.	.	.	16ee-\LL	-sti-	.	.	.	.
.	.	.	16f/JJ	.	16dd\JJ	.	.	.	.	16dd\JJ	.	.	.	.	.
8E-/J	.	.	8e-/	.	16ee-'\LL	f	.	.	.	8ee-\	-ca	.	.	.	.
.	.	.	.	.	16bb-'\	.	.	.	.	.	.	.	.	.	.
!	!	!	!LO:TUP:b:problem=klamra łukowa, łuczek zamiast numeru	!	!	!	!	!	!	!	!	!	!	!	!
8r	.	.	24b-/LL	f	16gg'\	.	.	.	.	8r	.	.	.	.	.
.	.	.	24g/	.	.	.	.	.	.	.	.	.	.	.	.
.	.	.	.	.	16ee-'\JJ	.	.	.	.	.	.	.	.	.	.
.	.	.	24e-/JJ	.	.	.	.	.	.	.	.	.	.	.	.
!	!	!	!LO:LB:g=original	!	!	!	!	!	!	!LO:LB:g=original	!	!	!	!	!
=21	=21	=21	=21	=21	=21	=21	=21	=21	=21	=21	=21	=21	=21	=21	=21
2BB-/	7	.	16b-/LL	.	16b-/LL	.	2ryy	2ryy	2ryy	2r	.	2ryy	2ryy	2ryy	2ryy
.	.	.	16a-/	.	16a-/	.	.	.	.	.	.	.	.	.	.
.	.	.	16f/	.	16f/	.	.	.	.	.	.	.	.	.	.
.	.	.	16d/JJ	.	16d/JJ	.	.	.	.	.	.	.	.	.	.
!	!	!	!	!	!LO:LB:g=original	!	!	!	!	!	!	!	!	!	!
.	.	.	16B-/LL	.	16B-/LL	.	.	.	.	.	.	.	.	.	.
.	.	.	16A-/	.	16A-/	.	.	.	.	.	.	.	.	.	.
.	.	.	16f/	.	16f/	.	.	.	.	.	.	.	.	.	.
.	.	.	16A-/JJ	.	16A-/JJ	.	.	.	.	.	.	.	.	.	.
=22	=22	=22	=22	=22	=22	=22	=22	=22	=22	=22	=22	=22	=22	=22	=22
8r	.	.	8A-/L	.	8A-/L	.	2ryy	2ryy	2ryy	4r	.	2ryy	2ryy	2ryy	2ryy
24E-/LL	.	.	8G/J	.	8G/J	.	.	.	.	.	.	.	.	.	.
24BB-/	.	.	.	.	.	.	.	.	.	.	.	.	.	.	.
24GG/JJ	.	.	.	.	.	.	.	.	.	.	.	.	.	.	.
8EE-/	.	.	8r	.	8r	.	.	.	.	8r	.	.	.	.	.
8r	.	.	16B-/LL	.	(16b-\LL	p	.	.	.	16b-\	Tur-	.	.	.	.
.	.	.	16g/JJ	p	16ee-\JJ)	.	.	.	.	16ee-\	-ris	.	.	.	.
=23	=23	=23	=23	=23	=23	=23	=23	=23	=23	=23	=23	=23	=23	=23	=23
*	*	*	*	*	*	*	*	*	*	*	*ij	*	*	*	*
8E-\L	.	.	(8.g/L	.	8.ee-\L	.	2ryy	2ryy	2ryy	8.ee-\L	Tur-	2ryy	2ryy	2ryy	2ryy
8E-\	.	.	.	.	.	.	.	.	.	.	.	.	.	.	.
.	.	.	32a-/LL	.	(32ff\LL	.	.	.	.	32ff\LL	.	.	.	.	.
!	!	!	!	!	!	!	!	!	!	!LO:SIC:s:v=32ee	!	!	!	!	!
.	.	.	32g/JJJ)	.	32ee-\JJJ)	.	.	.	.	32dd\JJJ	.	.	.	.	.
!	!	!	!LO:TX:t=P:problem=zapis łuku niejednoznaczny	!	!	!	!	!	!	!	!	!	!	!	!
!	!	!	!LO:TX:t=P:problem=mixed beam	!	!	!	!	!	!	!	!	!	!	!	!
8E-\J	.	.	(8g/L	.	(8ee-\L	.	.	.	.	8ee-\	-ris	.	.	.	.
*	*	*	*	*	*	*	*	*	*	*	*Xij	*	*	*	*
8r	.	.	16d/L	.	16b-\L	.	.	.	.	16b-\LL	da-	.	.	.	.
.	.	.	16b-\JJ)	.	16gg\JJ)	.	.	.	.	16gg\JJ	.	.	.	.	.
=24	=24	=24	=24	=24	=24	=24	=24	=24	=24	=24	=24	=24	=24	=24	=24
!	!	!	!LO:TX:t=P:problem=zapis łuku niejednoznaczny	!	!	!	!	!	!	!	!	!	!	!	!
8BB-/L	.	.	(16cc/LL	.	16aa-\LL	.	2ryy	2ryy	2ryy	16aa-\LL	-vi-	2ryy	2ryy	2ryy	2ryy
.	.	.	16a-/	.	(16ff\	.	.	.	.	16ff\JJ	.	.	.	.	.
8BB-/	.	.	16g/	.	16ee-\	.	.	.	.	16ee-\LL	-di-	.	.	.	.
.	.	.	16f/JJ)	.	16dd\JJ)	.	.	.	.	16dd\JJ	.	.	.	.	.
!	!	!	!LO:TX:t=P:problem=zapis łuku niejednoznaczny	!	!	!	!	!	!	!	!	!	!	!	!
8E-/J	.	.	(16g\LL	.	(16ee-\LL	.	.	.	.	8ee-\	-ca	.	.	.	.
.	.	.	16b-\	.	16b-\	.	.	.	.	.	.	.	.	.	.
8r	.	.	16gg\)	.	16bb-\)	.	.	.	.	8r	.	.	.	.	.
.	.	.	16ee-\JJ	.	16gg\JJ	.	.	.	.	.	.	.	.	.	.
!LO:LB:g=original	!	!	!	!	!	!	!	!	!	!	!	!	!	!	!
=25	=25	=25	=25	=25	=25	=25	=25	=25	=25	=25	=25	=25	=25	=25	=25
!	!	!	!LO:TX:t=P:problem=zapis łuku niejednoznaczny	!	!	!	!	!	!	!	!	!	!	!	!
8BB-/L	.	.	(16ee-\LL	.	(16gg\LL	.	2ryy	2ryy	2ryy	16gg\LL	O-	2ryy	2ryy	2ryy	2ryy
.	.	.	16dd\	.	16ff\	.	.	.	.	16ff\	.	.	.	.	.
8E-/J	.	.	16ee-\	.	16gg\	.	.	.	.	16gg\	.	.	.	.	.
.	.	.	16cc\JJ)	.	16ee-\JJ)	.	.	.	.	16ee-\JJ	.	.	.	.	.
8r	.	.	(16cc/LL	.	(16ee-\LL	.	.	.	.	16ee-\LL	-ra	.	.	.	.
.	.	.	16g/)	.	16b-\	.	.	.	.	16b-\JJ	.	.	.	.	.
8E-\	.	.	(16g/	.	16b-\	.	.	.	.	16b-\LL	pro-	.	.	.	.
.	.	.	16e-/JJ)	.	16g\JJ)	.	.	.	.	16g\JJ	.	.	.	.	.
=26	=26	=26	=26	=26	=26	=26	=26	=26	=26	=26	=26	=26	=26	=26	=26
8B-\L	.	.	8e-/L	.	8g/L	.	2ryy	2ryy	2ryy	8g\	-no-	2ryy	2ryy	2ryy	2ryy
8F\	.	.	8d/J	.	8f/J	.	.	.	.	8f\	-bis	.	.	.	.
8D\J	.	.	16r	.	16r	.	.	.	.	8r	.	.	.	.	.
!	!	!	!	!LO:DY:t=for.	!	!	!	!	!	!	!	!	!	!	!
.	.	.	32d/LLL	f	(32d/LLL	f	.	.	.	.	.	.	.	.	.
.	.	.	32e-/J	.	32e-/J	.	.	.	.	.	.	.	.	.	.
8r	.	.	(16f/	.	16f/	.	.	.	.	8r	.	.	.	.	.
.	.	.	16d/JJ)	.	16d/JJ)	.	.	.	.	.	.	.	.	.	.
!	!	!	!LO:LB:g=original	!	!LO:LB:g=original	!	!	!	!	!LO:LB:g=original	!	!	!	!	!
=27	=27	=27	=27	=27	=27	=27	=27	=27	=27	=27	=27	=27	=27	=27	=27
*tremolo	*	*	*	*	*	*	*	*	*	*	*	*	*	*	*
!	!	!	!	!	!LO:TX:t=P:problem=zapis łuku niejednoznaczny	!	!	!	!	!	!	!	!	!	!
8BB-/L	5_	.	(16B-/LL	p	(16B-/LL	p	2ryy	2ryy	2ryy	4ff\	Tur-	2ryy	2ryy	2ryy	2ryy
.	.	.	16d/)	.	16f/	.	.	.	.	.	.	.	.	.	.
8BB-/	.	.	(16B-/	.	16d/	.	.	.	.	.	.	.	.	.	.
.	.	.	16d/JJ)	.	16f/JJ)	.	.	.	.	.	.	.	.	.	.
!	!	!	!	!	!LO:TX:t=P:problem=zapis łuku niejednoznaczny	!	!	!	!	!	!	!	!	!	!
8BB-/	.	.	(16B-/LL	.	(16d/LL	.	.	.	.	16ee-\LL	-ris	.	.	.	.
.	.	.	16d/)	.	16f/	.	.	.	.	16dd\JJ	.	.	.	.	.
8BB-/J	.	.	(16B-/	.	16d/	.	.	.	.	16cc\LL	E-	.	.	.	.
.	.	.	16d/JJ)	.	16f/JJ)	.	.	.	.	16b-\JJ	.	.	.	.	.
*Xtremolo	*	*	*	*	*	*	*	*	*	*	*	*	*	*	*
=28	=28	=28	=28	=28	=28	=28	=28	=28	=28	=28	=28	=28	=28	=28	=28
!LO:TX:t=P:problem=mixed beam	!	!	!LO:TX:t=P:problem=zapis łuku niejednoznaczny	!	!LO:TX:t=P:problem=zapis łuku niejednoznaczny	!	!	!	!	!	!	!	!	!	!
8F\L	7	.	(16c/LL	.	(16e-/LL	.	2ryy	2ryy	2ryy	8.an\	-bur-	2ryy	2ryy	2ryy	2ryy
.	.	.	16f/	.	16f/	.	.	.	.	.	.	.	.	.	.
8F\	_	.	16c/	.	16e-/	.	.	.	.	.	.	.	.	.	.
.	.	.	16f/JJ)	.	16f/JJ)	.	.	.	.	32b-\LLL	-ne-	.	.	.	.
.	.	.	.	.	.	.	.	.	.	32cc\JJJ	.	.	.	.	.
!	!	!	!LO:TX:t=P:problem=zapis łuku niejednoznaczny	!	!LO:TX:t=P:problem=zapis łuku niejednoznaczny	!	!	!	!	!	!	!	!	!	!
.	.	.	.	.	.	.	.	.	.	8qqcc/	.	.	.	.	.
8BB-\	7	.	(16B-/LL	.	(16d/LL	.	.	.	.	4b-\	-a	.	.	.	.
.	.	.	16d/	.	16f/	.	.	.	.	.	.	.	.	.	.
8BB-\J	_	.	16B-/	.	16d/	.	.	.	.	.	.	.	.	.	.
.	.	.	16d/JJ)	.	16f/JJ)	.	.	.	.	.	.	.	.	.	.
=29	=29	=29	=29	=29	=29	=29	=29	=29	=29	=29	=29	=29	=29	=29	=29
!	!	!	!LO:TX:t=P:problem=zapis łuku niejednoznaczny	!	!LO:TX:t=P:problem=zapis łuku niejednoznaczny	!	!	!	!	!	!	!	!	!	!
8E-\L	x	.	(16B-/LL	.	(16e-/LL	.	2ryy	2ryy	2ryy	(4gg\	Do-	2ryy	2ryy	2ryy	2ryy
.	.	.	16e-/	.	16g/	.	.	.	.	.	.	.	.	.	.
8E-\	.	.	16B-/	.	16e-/	.	.	.	.	.	.	.	.	.	.
.	.	.	16e-/JJ)	.	16g/JJ)	.	.	.	.	.	.	.	.	.	.
!	!	!	!LO:TX:t=P:problem=zapis łuku niejednoznaczny	!	!LO:TX:t=P:problem=zapis łuku niejednoznaczny	!	!	!	!	!	!	!	!	!	!
8F\	.	.	(16c/LL	.	(16an/LL	.	.	.	.	16ff\LL)	.	.	.	.	.
.	.	.	16e-/	.	16cc/	.	.	.	.	16ee-\JJ	.	.	.	.	.
8F\J	.	.	16c/	.	16a/	.	.	.	.	(16dd\LL	-mus	.	.	.	.
.	.	.	16e-/JJ)	.	16cc/JJ)	.	.	.	.	16ee-\JJ)	.	.	.	.	.
=30	=30	=30	=30	=30	=30	=30	=30	=30	=30	=30	=30	=30	=30	=30	=30
!	!	!	!LO:TX:t=P:problem=mixed beam	!	!	!	!	!	!	!	!	!	!	!	!
!LO:TX:t=P:problem=mixed beam	!	!	!LO:TX:t=P:problem=zapis łuku niejednoznaczny	!	!	!	!	!	!	!	!	!	!	!	!
8BB-/L	.	.	(16e-/LL	.	(16cc/LL	.	2ryy	2ryy	2ryy	16ee-\	Au-	2ryy	2ryy	2ryy	2ryy
.	.	.	16d/)	.	16b-/)	.	.	.	.	16dd\	-re-	.	.	.	.
8BB-/	.	.	16B-/	.	(16d/	.	.	.	.	8dd\	-a	.	.	.	.
.	.	.	16b-\JJ	.	16b-/JJ)	.	.	.	.	.	.	.	.	.	.
!	!	!	!LO:TX:t=P:problem=zapis łuku niejednoznaczny	!	!LO:TX:t=P:problem=zapis łuku niejednoznaczny	!	!	!	!	!	!	!	!	!	!
8B-\	-	.	(16f/LL	.	(16f/LL	.	.	.	.	8r	.	.	.	.	.
.	.	.	16b-/	.	16b-/	.	.	.	.	.	.	.	.	.	.
8B-\J	.	.	16f/	.	16f/	.	.	.	.	16r	.	.	.	.	.
.	.	.	16b-/JJ)	.	16dd-X/JJ)	.	.	.	.	[16dd-X\	Do-	.	.	.	.
=31	=31	=31	=31	=31	=31	=31	=31	=31	=31	=31	=31	=31	=31	=31	=31
!	!	!	!LO:SIC:s:v=8f-	!	!LO:SIC:s:v=4dd-	!	!	!	!	!	!	!	!	!	!
4En\	-7	.	8g-X/L	.	4dd\	.	2ryy	2ryy	2ryy	4dd-\]	.	2ryy	2ryy	2ryy	2ryy
!	!	!	!LO:SIC:s:v=8f-	!	!	!	!	!	!	!	!	!	!	!	!
.	.	.	8g-/	.	.	.	.	.	.	.	.	.	.	.	.
!	!	!	!LO:SIC:s:v=8f-	!	!	!	!	!	!	!	!	!	!	!	!
4E\	.	.	8g-/	.	(16ff\LL	.	.	.	.	16ff\LL	-mus	.	.	.	.
.	.	.	.	.	16dd\	.	.	.	.	16ddn\JJ	.	.	.	.	.
!	!	!	!LO:SIC:s:v=8f-	!	!	!	!	!	!	!	!	!	!	!	!
.	.	.	8g-/J	.	16cc\	.	.	.	.	16cc\	Au-	.	.	.	.
.	.	.	.	.	16b-\JJ)	.	.	.	.	16b-\	-re-	.	.	.	.
=32	=32	=32	=32	=32	=32	=32	=32	=32	=32	=32	=32	=32	=32	=32	=32
.	.	.	.	.	.	.	.	.	.	8qqb-/	.	.	.	.	.
!	!	!	!	!	!	!LO:DY:t=forte	!	!	!	!	!	!	!	!	!
4F\	n	.	8f/L	.	8an\L	f	2ryy	2ryy	2ryy	4an\	-a	2ryy	2ryy	2ryy	2ryy
.	.	.	8f/	.	8ff\ 8a\	.	.	.	.	.	.	.	.	.	.
4r	.	.	8f/J	.	8ff\J 8a\	.	.	.	.	4r	.	.	.	.	.
.	.	.	8r	.	8r	.	.	.	.	.	.	.	.	.	.
!	!	!	!LO:LB:g=original	!	!LO:LB:g=original	!	!	!	!	!LO:LB:g=original	!	!	!	!	!
=33	=33	=33	=33	=33	=33	=33	=33	=33	=33	=33	=33	=33	=33	=33	=33
4F\	n	.	16r	.	16r	.	2ryy	2ryy	2ryy	4.cc\	O-	2ryy	2ryy	2ryy	2ryy
!	!	!	!	!	!LO:TX:a:t=|	!LO:DY:t=piano	!	!	!	!	!	!	!	!	!
.	.	.	16c/LL	.	16cc\LL	p	.	.	.	.	.	.	.	.	.
.	.	.	16B-/	.	(16b-\	.	.	.	.	.	.	.	.	.	.
.	.	.	16An/JJ	.	16an\JJ)	.	.	.	.	.	.	.	.	.	.
4r	.	.	16G/LL	.	(16g/LL	.	.	.	.	.	.	.	.	.	.
.	.	.	16A/	.	16f/)	.	.	.	.	.	.	.	.	.	.
!	!	!	!	!	!LO:TX:b:t=|	!	!	!	!	!	!	!	!	!	!
.	.	.	16c/	.	16cc/	.	.	.	.	8ee-\	-ra	.	.	.	.
!	!	!	!	!	!LO:TX:b:t=|	!	!	!	!	!	!	!	!	!	!
.	.	.	16e-/JJ	.	16ee-/JJ	.	.	.	.	.	.	.	.	.	.
=34	=34	=34	=34	=34	=34	=34	=34	=34	=34	=34	=34	=34	=34	=34	=34
*	*	*	*	*	*	*	*	*	*	*	*ij	*	*	*	*
4BB-/	.	.	16r	.	16r	.	2ryy	2ryy	2ryy	16dd\LL	O-	2ryy	2ryy	2ryy	2ryy
!	!	!	!	!	!LO:TX:a:t=|	!	!	!	!	!	!	!	!	!	!
.	.	.	16d'/LL	.	16dd\LL	.	.	.	.	16ff\JJ	.	.	.	.	.
.	.	.	(16f/	.	(16ff\	.	.	.	.	8ff\	-ra	.	.	.	.
*	*	*	*	*	*	*	*	*	*	*	*Xij	*	*	*	*
.	.	.	16d/JJ)	.	16dd\JJ)	.	.	.	.	.	.	.	.	.	.
4r	.	.	(16c/LL	.	(16cc\LL	.	.	.	.	8r	.	.	.	.	.
.	.	.	16B-/)	.	16b-\)	.	.	.	.	.	.	.	.	.	.
!	!	!	!	!	!LO:TX:a:t=|	!	!	!	!	!	!	!	!	!	!
.	.	.	16f'/	.	16ff\	.	.	.	.	16r	.	.	.	.	.
!	!	!	!	!	!LO:TX:a:t=|	!	!	!	!	!	!	!	!	!	!
.	.	.	16a-X'/JJ	.	16aa-X\JJ	.	.	.	.	16aa-X\	O-	.	.	.	.
!LO:LB:g=original	!	!	!	!	!	!	!	!	!	!	!	!	!	!	!
=35	=35	=35	=35	=35	=35	=35	=35	=35	=35	=35	=35	=35	=35	=35	=35
8E-\	.	.	8g'/L	.	8.gg\L	.	2ryy	2ryy	2ryy	8gg\	-ra	2ryy	2ryy	2ryy	2ryy
8r	.	.	(16g/L	.	.	.	.	.	.	16ee-\LL	pro-	.	.	.	.
.	.	.	16e-/JJ)	.	32ee-\LL	.	.	.	.	16cc\JJ	.	.	.	.	.
.	.	.	.	.	32cc\JJJ	.	.	.	.	.	.	.	.	.	.
4F\	4n	.	8d/L	.	8b-\L	.	.	.	.	8b-\L	-no-	.	.	.	.
.	.	.	8c/J	.	8an\J	.	.	.	.	8an\J	.	.	.	.	.
=36	=36	=36	=36	=36	=36	=36	=36	=36	=36	=36	=36	=36	=36	=36	=36
!	!	!	!LO:TX:t=P:problem=mixed beam	!	!	!	!	!	!	!	!	!	!	!	!
4BB-/	.	.	16.d/LL	.	16.b-\LL	.	2ryy	2ryy	2ryy	4b-\	-bis	2ryy	2ryy	2ryy	2ryy
.	.	.	32dd\JK	f	32dd\JK	.	.	.	.	.	.	.	.	.	.
.	.	.	8ff\J	.	8ff\J	f	.	.	.	.	.	.	.	.	.
8r	.	.	16r	.	16r	.	.	.	.	4r	.	.	.	.	.
!	!	!	!	!LO:DY:t=pia.	!	!LO:DY:t=piano	!	!	!	!	!	!	!	!	!
.	.	.	16f/LL	p	(16ff\LL	p	.	.	.	.	.	.	.	.	.
8F\	n	.	16a-/	.	16gg\	.	.	.	.	.	.	.	.	.	.
.	.	.	16Bn/JJ	.	16bn\JJ)	.	.	.	.	.	.	.	.	.	.
=37	=37	=37	=37	=37	=37	=37	=37	=37	=37	=37	=37	=37	=37	=37	=37
4E-\	.	.	(16c/LL	.	16cc\LL	.	2ryy	2ryy	2ryy	8r	.	2ryy	2ryy	2ryy	2ryy
!	!	!	!LO:TX:t=P:problem=zapis łuku niejednoznaczny	!	!	!	!	!	!	!	!	!	!	!	!
.	.	.	16d/	.	16dd\	.	.	.	.	.	.	.	.	.	.
.	.	.	16e-/	.	(16ee-\	.	.	.	.	16r	.	.	.	.	.
.	.	.	16c/JJ)	.	16cc\JJ	.	.	.	.	16cc\	O-	.	.	.	.
4F\	n	.	(16B-X/LL	.	16b-/LL)	.	.	.	.	16b-\LL	-ra	.	.	.	.
!	!	!	!LO:SIC:s:v=16An	!	!	!	!	!	!	!	!	!	!	!	!
.	.	.	16A-/)	.	16an/	.	.	.	.	16an\JJ	.	.	.	.	.
.	.	.	16G'/	.	16g/	.	.	.	.	16g\LL	pro-	.	.	.	.
.	.	.	16B-'/JJ	.	16f/JJ	.	.	.	.	16f\JJ	.	.	.	.	.
!	!	!	!LO:LB:g=original	!	!LO:LB:g=original	!	!	!	!	!	!	!	!	!	!
=38	=38	=38	=38	=38	=38	=38	=38	=38	=38	=38	=38	=38	=38	=38	=38
!	!	!	!LO:TX:t=P:problem=mixed beam	!	!	!	!	!	!	!	!	!	!	!	!
8BB-/	.	.	16d/LL	.	16.b-/LL 16.d/	.	2ryy	2ryy	2ryy	16b-\LL	-no-	2ryy	2ryy	2ryy	2ryy
.	.	.	16dd\J	f	.	.	.	.	.	16ee-\JJ	.	.	.	.	.
.	.	.	.	.	32dd/JK	f	.	.	.	.	.	.	.	.	.
8r	.	.	8ff\J	.	8ff/J	.	.	.	.	8ff\	-bis	.	.	.	.
4F\	n	.	16r	.	16r	.	.	.	.	4r	.	.	.	.	.
!	!	!	!	!LO:DY:t=pia.	!	!LO:DY:t=pia&colon;	!	!	!	!	!	!	!	!	!
.	.	.	16f/LL	p	(16dd\LL	p	.	.	.	.	.	.	.	.	.
.	.	.	16a-/	.	16ff\	.	.	.	.	.	.	.	.	.	.
.	.	.	16Bn/JJ	.	16bn\JJ)	.	.	.	.	.	.	.	.	.	.
!	!	!	!	!	!	!	!	!	!	!LO:LB:g=original	!	!	!	!	!
=39	=39	=39	=39	=39	=39	=39	=39	=39	=39	=39	=39	=39	=39	=39	=39
!	!	!	!LO:TX:t=P:problem=zapis łuku niejednoznaczny	!	!	!	!	!	!	!	!	!	!	!	!
4E-\	6	.	(16c/LL	.	(16cc\LL	.	2ryy	2ryy	2ryy	8r	.	2ryy	2ryy	2ryy	2ryy
.	.	.	16d/	.	16dd\	.	.	.	.	.	.	.	.	.	.
.	.	.	16e-/	.	16ee-\	.	.	.	.	16r	.	.	.	.	.
.	.	.	16c/JJ)	.	16cc\JJ)	.	.	.	.	16cc\	O-	.	.	.	.
!	!	!	!	!	!LO:TX:t=P:problem=zapis łuku niejednoznaczny	!	!	!	!	!	!	!	!	!	!
4F\	n	.	16B-/LL	.	(16b-/LL	.	.	.	.	16b-\LL	-ra	.	.	.	.
!	!	!	!	!	!	!	!	!	!	!LO:SIC:s:v=16an	!	!	!	!	!
.	.	.	16An/	.	16an/	.	.	.	.	16a-\JJ	.	.	.	.	.
.	.	.	16G/	.	16g/	.	.	.	.	16g\LL	pro-	.	.	.	.
.	.	.	16A/JJ	.	16f/JJ)	.	.	.	.	16f\JJ	.	.	.	.	.
=40	=40	=40	=40	=40	=40	=40	=40	=40	=40	=40	=40	=40	=40	=40	=40
!	!	!	!LO:TX:t=P:problem=zapis łuku niejednoznaczny	!	!	!	!	!	!	!	!	!	!	!	!
8BB-/L	.	.	(16B-/LL	.	8.b-\L	.	2ryy	2ryy	2ryy	8b-\	-no-	2ryy	2ryy	2ryy	2ryy
.	.	.	16c/	.	.	.	.	.	.	.	.	.	.	.	.
8BB-/	.	.	16d/	.	.	.	.	.	.	8b-\	-bis	.	.	.	.
.	.	.	16e-/JJ)	.	32cc\LL	.	.	.	.	.	.	.	.	.	.
.	.	.	.	.	32b-\JJJ	.	.	.	.	.	.	.	.	.	.
!	!	!	!LO:TX:t=P:problem=zapis łuku niejednoznaczny	!	!	!	!	!	!	!	!	!	!	!	!
8BB-/	-7	.	(16f/LL	.	4aa-X\	.	.	.	.	4aa-X\	O-	.	.	.	.
.	.	.	16g/	.	.	.	.	.	.	.	.	.	.	.	.
8BB-/J	.	.	16a-/	.	.	.	.	.	.	.	.	.	.	.	.
.	.	.	16d/JJ)	.	.	.	.	.	.	.	.	.	.	.	.
=41	=41	=41	=41	=41	=41	=41	=41	=41	=41	=41	=41	=41	=41	=41	=41
4E-\	6	.	(8.e-/L	.	8.gg\L	.	2ryy	2ryy	2ryy	8gg\	-ra	2ryy	2ryy	2ryy	2ryy
.	.	.	.	.	.	.	.	.	.	16ee-\LL	pro-	.	.	.	.
.	.	.	32g/LL	.	32ee-\LL	.	.	.	.	16cc\JJ	.	.	.	.	.
.	.	.	32e-/JJJ)	.	32cc\JJJ	.	.	.	.	.	.	.	.	.	.
8F\L	6 4	.	8d/L	.	8b-/L	.	.	.	.	8b-\L	-no-	.	.	.	.
8F\J	5 n	.	8c/J	.	8an/J	.	.	.	.	8an\J	.	.	.	.	.
=42	=42	=42	=42	=42	=42	=42	=42	=42	=42	=42	=42	=42	=42	=42	=42
!LO:TX:a:t=|	!	!	!	!	!	!	!	!	!	!	!	!	!	!	!
8B-\L	.	.	16d/LL	.	16b-/LL	.	2ryy	2ryy	2ryy	4b-\	-bis	2ryy	2ryy	2ryy	2ryy
.	.	.	32d/L	.	32d/L	.	.	.	.	.	.	.	.	.	.
.	.	.	32e-/J	.	32e-/JJJ	.	.	.	.	.	.	.	.	.	.
!LO:TX:a:t=|	!	!	!	!	!	!	!	!	!	!	!	!	!	!	!
8F\	.	.	16f/	.	16f/LL	.	.	.	.	.	.	.	.	.	.
.	.	.	16d/JJ	.	16d/JJ	.	.	.	.	.	.	.	.	.	.
8BB-\J	.	.	8B-/	.	8B-/	.	.	.	.	4r	.	.	.	.	.
8r	.	.	8r	.	8r	.	.	.	.	.	.	.	.	.	.
!	!	!	!LO:LB:g=original	!	!LO:LB:g=original	!	!	!	!	!	!	!	!	!	!
=43	=43	=43	=43	=43	=43	=43	=43	=43	=43	=43	=43	=43	=43	=43	=43
8B-\L	.	f	16r	.	16r	.	2ryy	2ryy	2ryy	0r	.	2ryy	2ryy	2ryy	2ryy
.	.	.	(16ff\LL	f	(16ff\LL	f	.	.	.	.	.	.	.	.	.
8B-\J	.	.	16ee-\	.	16ee-\	.	.	.	.	.	.	.	.	.	.
.	.	.	16dd\JJ)	.	16dd\JJ)	.	.	.	.	.	.	.	.	.	.
8r	.	.	(16cc\LL	.	(16cc\LL	.	.	.	.	.	.	.	.	.	.
.	.	.	16b-\)	.	16b-\)	.	.	.	.	.	.	.	.	.	.
8B-\	.	.	(16bb-\	.	(16bb-\	.	.	.	.	.	.	.	.	.	.
.	.	.	16een\JJ)	.	16een\JJ)	.	.	.	.	.	.	.	.	.	.
!LO:LB:g=original	!	!	!	!	!	!	!	!	!	!	!	!	!	!	!
=44	=44	=44	=44	=44	=44	=44	=44	=44	=44	=44	=44	=44	=44	=44	=44
8An\L	6	.	16ff\LL	.	(16ff\LL	.	2ryy	2ryy	2ryy	.	.	2ryy	2ryy	2ryy	2ryy
!	!	!	!	!	!LO:TX:t=P:problem=zapis łuku niejednoznaczny	!	!	!	!	!	!	!	!	!	!
.	.	.	16cc\	.	16cc\	.	.	.	.	.	.	.	.	.	.
8A\J	.	.	16b-\	.	16b-\	.	.	.	.	.	.	.	.	.	.
.	.	.	16an\JJ	.	16an\JJ)	.	.	.	.	.	.	.	.	.	.
!	!	!	!LO:TX:t=P:problem=mixed beam	!	!	!	!	!	!	!	!	!	!	!	!
!	!	!	!LO:TX:t=P:problem=zapis łuku niejednoznaczny	!	!	!	!	!	!	!	!	!	!	!	!
8r	.	.	(16g/LL	.	(16g/LL	.	.	.	.	.	.	.	.	.	.
.	.	.	16f/	.	16f/JJ)	.	.	.	.	.	.	.	.	.	.
8F\	n	.	16ee-X\	.	(16ee-\LL	.	.	.	.	.	.	.	.	.	.
.	.	.	16a/JJ)	.	16an\JJ)	.	.	.	.	.	.	.	.	.	.
=45	=45	=45	=45	=45	=45	=45	=45	=45	=45	=45	=45	=45	=45	=45	=45
!LO:TX:t=P:problem=mixed beam	!	!	!LO:TUP:a:problem=klamra łukowa, łuczek zamiast numeru	!	!LO:TUP:b:problem=klamra łukowa, łuczek zamiast numeru	!	!	!	!	!	!	!	!	!	!
8D\L	6	.	24b-/LL	.	24b-/LL	.	2ryy	2ryy	2ryy	.	.	2ryy	2ryy	2ryy	2ryy
.	.	.	24f/	.	24f/	.	.	.	.	.	.	.	.	.	.
.	.	.	24b-/JJ	.	24b-/JJ	.	.	.	.	.	.	.	.	.	.
!	!	!	!LO:TUP:a:problem=klamra łukowa, łuczek zamiast numeru	!	!LO:TUP:b:problem=klamra łukowa, łuczek zamiast numeru	!	!	!	!	!	!	!	!	!	!
8E-\	6	.	24e-/LL	.	24g/LL	.	.	.	.	.	.	.	.	.	.
.	.	.	24d/	.	24f/	.	.	.	.	.	.	.	.	.	.
.	.	.	24c/JJ	.	24e-/JJ	.	.	.	.	.	.	.	.	.	.
8F/	.	.	8B-/L	.	8d/L	.	.	.	.	.	.	.	.	.	.
8FF/J	.	.	8An/J	.	8c/J	.	.	.	.	.	.	.	.	.	.
=46	=46	=46	=46	=46	=46	=46	=46	=46	=46	=46	=46	=46	=46	=46	=46
!	!	!	!LO:TX:t=P:problem=zapis łuku niejednoznaczny	!	!LO:TX:t=P:problem=mixed beam	!	!	!	!	!	!	!	!	!	!
4BB-/	.	.	(16B-/LL	.	16B-/LL	.	2ryy	2ryy	2ryy	.	.	2ryy	2ryy	2ryy	2ryy
!	!	!	!	!LO:DY:t=pia.	!	!	!	!	!	!	!	!	!	!	!
.	.	.	16f/	p	16ff\	p	.	.	.	.	.	.	.	.	.
.	.	.	16d/	.	16dd\	.	.	.	.	.	.	.	.	.	.
.	.	.	16B-/JJ)	.	16b-\JJ	.	.	.	.	.	.	.	.	.	.
!	!	!	!LO:TX:t=P:problem=zapis łuku niejednoznaczny	!	!	!	!	!	!	!	!	!	!	!	!
8r	.	.	(16f/LL	f	16f/LL	f	.	.	.	.	.	.	.	.	.
.	.	.	16e-/	.	16e-/	.	.	.	.	.	.	.	.	.	.
8F\	n	.	16c/	.	16c/	.	.	.	.	.	.	.	.	.	.
.	.	.	16An/JJ)	.	16An/JJ	.	.	.	.	.	.	.	.	.	.
!	!	!	!LO:LB:g=original	!	!	!	!	!	!	!	!	!	!	!	!
=47	=47	=47	=47	=47	=47	=47	=47	=47	=47	=47	=47	=47	=47	=47	=47
!	!	!	!LO:TX:t=P:problem=zapis łuku niejednoznaczny	!	!LO:TX:t=P:problem=mixed beam	!	!	!	!	!	!	!	!	!	!
4BB-/	.	.	(16B-/LL	.	16B-/LL	.	2ryy	2ryy	2ryy	1r	.	2ryy	2ryy	2ryy	2ryy
.	.	.	16f/	p	16ff\	p	.	.	.	.	.	.	.	.	.
.	.	.	16d/	.	16dd\	.	.	.	.	.	.	.	.	.	.
.	.	.	16B-/JJ)	.	16b-\JJ	.	.	.	.	.	.	.	.	.	.
!	!	!	!	!	!LO:LB:g=original	!	!	!	!	!	!	!	!	!	!
!	!	!	!LO:TX:t=P:problem=zapis łuku niejednoznaczny	!	!	!	!	!	!	!	!	!	!	!	!
8r	.	.	(16f/LL	f	16f/LL	f	.	.	.	.	.	.	.	.	.
.	.	.	16e-/	.	16e-/	.	.	.	.	.	.	.	.	.	.
8F\	.	.	16c/	.	16c/	.	.	.	.	.	.	.	.	.	.
.	.	.	16An/JJ)	.	16An/JJ	.	.	.	.	.	.	.	.	.	.
=48	=48	=48	=48	=48	=48	=48	=48	=48	=48	=48	=48	=48	=48	=48	=48
!	!	!	!LO:TX:t=P:problem=zapis łuku niejednoznaczny	!	!	!	!	!	!	!	!	!	!	!	!
8BB-'/L	.	f	(16B-/LL	.	16B-/LL	.	2ryy	2ryy	2ryy	.	.	2ryy	2ryy	2ryy	2ryy
.	.	.	32d/L	.	32d/L	.	.	.	.	.	.	.	.	.	.
.	.	.	32e-/J	.	32e-/J	.	.	.	.	.	.	.	.	.	.
16D'/L	.	.	16f/	.	16f/	.	.	.	.	.	.	.	.	.	.
16E-'/JJ	.	.	16d/JJ)	.	16d/JJ	.	.	.	.	.	.	.	.	.	.
16F'/LL	.	.	8B-/	.	8B-/	.	.	.	.	.	.	.	.	.	.
16D'/J	.	.	.	.	.	.	.	.	.	.	.	.	.	.	.
8BB-'/J	.	.	8r	.	8r	.	.	.	.	.	.	.	.	.	.
=49	=49	=49	=49	=49	=49	=49	=49	=49	=49	=49	=49	=49	=49	=49	=49
!	!	!	!	!LO:DY:t=pia.	!	!	!	!	!	!	!	!	!	!	!
4BB-/	.	p	(16en/LL	p	8.b-\L	p	2ryy	2ryy	2ryy	8b-\	Do-	2ryy	2ryy	2ryy	2ryy
.	.	.	16g/)	.	.	.	.	.	.	.	.	.	.	.	.
.	.	.	(16e/	.	.	.	.	.	.	16cc\LL	-mus	.	.	.	.
.	.	.	16g/JJ)	.	32cc\LL	.	.	.	.	16b-\JJ	.	.	.	.	.
.	.	.	.	.	32b-\JJJ	.	.	.	.	.	.	.	.	.	.
*	*	*	*	*	*	*	*	*	*	*	*ij	*	*	*	*
4r	.	.	(16e/LL	.	8b-\L	.	.	.	.	8b-\	Do-	.	.	.	.
.	.	.	16g/)	.	.	.	.	.	.	.	.	.	.	.	.
.	.	.	(16e/	.	8b-\J	.	.	.	.	8b-\	-mus	.	.	.	.
*	*	*	*	*	*	*	*	*	*	*	*Xij	*	*	*	*
.	.	.	16g/JJ)	.	.	.	.	.	.	.	.	.	.	.	.
!	!	!	!	!	!	!	!	!	!	!LO:LB:g=original	!	!	!	!	!
=50	=50	=50	=50	=50	=50	=50	=50	=50	=50	=50	=50	=50	=50	=50	=50
!	!	!	!LO:SIC:s:v=16en	!	!	!	!	!	!	!	!	!	!	!	!
8C\L	7 n	.	(16e-/LL	.	(16g/LL	.	2ryy	2ryy	2ryy	8.gg\	Do-	2ryy	2ryy	2ryy	2ryy
.	.	.	16g/)	.	16b-/)	.	.	.	.	.	.	.	.	.	.
8C\	_ _	.	(16e-/	.	(16g/	.	.	.	.	.	.	.	.	.	.
.	.	.	16g/JJ)	.	16b-/JJ)	.	.	.	.	16een\	-mus	.	.	.	.
8C\	.	.	(16e-/LL	.	(16g/LL	.	.	.	.	16ee\LL	Au-	.	.	.	.
.	.	.	16g/)	.	16b-/)	.	.	.	.	16cc\JJ	.	.	.	.	.
8C\J	x	.	(16c/	.	(16en/	.	.	.	.	16cc\LL	-re-	.	.	.	.
.	.	.	16e-/JJ)	.	16g/JJ)	.	.	.	.	16b-\JJ	.	.	.	.	.
=51	=51	=51	=51	=51	=51	=51	=51	=51	=51	=51	=51	=51	=51	=51	=51
*2\right	*	*	*	*	*	*	*	*	*	*	*	*	*	*	*
*tremolo	*	*	*	*	*	*	*	*	*	*	*	*	*	*	*
!	!	!	!LO:TX:t=P:problem=zapis łuku niejednoznaczny	!	!	!	!	!	!	!	!	!	!	!	!
.	.	.	.	.	.	.	.	.	.	8qqb-/	.	.	.	.	.
8F\L	-	.	(16c/LL	.	(16f/LL	.	2ryy	2ryy	2ryy	8a-X\	-a	2ryy	2ryy	2ryy	2ryy
.	.	.	16f/	.	16a-X/)	.	.	.	.	.	.	.	.	.	.
8F\	.	.	16A-/	.	(16f/	.	.	.	.	8r	.	.	.	.	.
.	.	.	16f/JJ)	.	16a-/JJ)	.	.	.	.	.	.	.	.	.	.
!	!	!	!LO:TX:t=P:problem=zapis łuku niejednoznaczny	!	!	!	!	!	!	!	!	!	!	!	!
8F\	.	.	(16A-/LL	.	(16f/LL	.	.	.	.	8r	.	.	.	.	.
.	.	.	16f/	.	16a-/)	.	.	.	.	.	.	.	.	.	.
8F\J	.	.	16A-/	.	(16f/	.	.	.	.	16aa-X\LL	Ja-	.	.	.	.
.	.	.	16f/JJ)	.	16a-/JJ)	.	.	.	.	16ff\JJ	.	.	.	.	.
!	!	!	!LO:LB:g=original	!	!	!	!	!	!	!	!	!	!	!	!
=52	=52	=52	=52	=52	=52	=52	=52	=52	=52	=52	=52	=52	=52	=52	=52
!	!	!	!LO:TX:t=P:problem=zapis łuku niejednoznaczny	!	!	!	!	!	!	!	!	!	!	!	!
8BB-/L	7	.	(16A-/LL	.	(16f/LL	.	2ryy	2ryy	2ryy	16ee-\LL	.	2ryy	2ryy	2ryy	2ryy
.	.	.	16f/	.	16a-/)	.	.	.	.	16dd\	.	.	.	.	.
8BB-/	.	.	16A-/	.	(16f/	.	.	.	.	16ff\	.	.	.	.	.
.	.	.	16f/JJ)	.	16a-/JJ)	.	.	.	.	16dd\JJ	.	.	.	.	.
!	!	!	!LO:TX:t=P:problem=zapis łuku niejednoznaczny	!	!	!	!	!	!	!	!	!	!	!	!
8BB-/	.	.	(16A-/LL	.	(16f/LL	.	.	.	.	16cc\LL	.	.	.	.	.
.	.	.	16f/	.	16a-/)	.	.	.	.	16b-\JJ	.	.	.	.	.
8BB-/J	.	.	16A-/	.	(16d/	.	.	.	.	16ff\	-nu-	.	.	.	.
.	.	.	16d/JJ)	.	16f/JJ)	.	.	.	.	16a-X\	-a	.	.	.	.
*Xtremolo	*	*	*	*	*	*	*	*	*	*	*	*	*	*	*
!LO:LB:g=original	!	!	!	!	!LO:LB:g=original	!	!	!	!	!	!	!	!	!	!
=53	=53	=53	=53	=53	=53	=53	=53	=53	=53	=53	=53	=53	=53	=53	=53
!	!	!	!LO:TX:t=P:problem=zapis łuku niejednoznaczny	!	!	!	!	!	!	!	!	!	!	!	!
8E-\L	.	.	(16A-/LL	.	(16d/LL	.	2ryy	2ryy	2ryy	8a-X\	Cae-	2ryy	2ryy	2ryy	2ryy
.	.	.	16d/	.	16f/)	.	.	.	.	.	.	.	.	.	.
8E-\	.	.	16G/	.	(16e-/	.	.	.	.	8g\	-li	.	.	.	.
.	.	.	16e-/JJ)	.	16g/JJ)	.	.	.	.	.	.	.	.	.	.
8E-\J	.	.	16G/LL	.	8e-/L	.	.	.	.	8r	.	.	.	.	.
.	.	.	16B-/J	.	.	.	.	.	.	.	.	.	.	.	.
!	!	!	!	!	!LO:TX:t=P:problem=zapis łuku niejednoznaczny	!	!	!	!	!	!	!	!	!	!
8r	.	.	8g/J	.	(16b-/L	.	.	.	.	16b-\	Stel-	.	.	.	.
.	.	.	.	.	16ee-/JJ)	.	.	.	.	16ee-\	-la	.	.	.	.
!	!	!	!	!	!	!	!	!	!	!LO:LB:g=original	!	!	!	!	!
=54	=54	=54	=54	=54	=54	=54	=54	=54	=54	=54	=54	=54	=54	=54	=54
8E-\L	.	.	8.g/L	.	(8.ee-\L	.	2ryy	2ryy	2ryy	8.ee-\L	Stel-	2ryy	2ryy	2ryy	2ryy
8E-\	.	.	.	.	.	.	.	.	.	.	.	.	.	.	.
.	.	.	32a-/LL	.	32ff\LL	.	.	.	.	32ff\LL	.	.	.	.	.
.	.	.	32g/JJJ	.	32ee-\JJJ)	.	.	.	.	32ee-\JJJ	.	.	.	.	.
!	!	!	!LO:TX:t=P:problem=mixed beam	!	!	!	!	!	!	!	!	!	!	!	!
8E-\J	.	.	8g/L	.	8ee-\L	.	.	.	.	8ee-\	-la	.	.	.	.
8r	.	.	16B-/L	.	16b-\L	.	.	.	.	16b-\	Ma-	.	.	.	.
.	.	.	16b-\JJ	.	16gg\JJ	.	.	.	.	16gg\	-tu-	.	.	.	.
=55	=55	=55	=55	=55	=55	=55	=55	=55	=55	=55	=55	=55	=55	=55	=55
8BB-/L	.	.	16f/LL	.	16aa-\LL	.	2ryy	2ryy	2ryy	16aa-X\LL	-ti-	2ryy	2ryy	2ryy	2ryy
.	.	.	16a-/	.	(16ff\	.	.	.	.	16ff\	.	.	.	.	.
8BB-/	.	.	16g/	.	16ee-\	.	.	.	.	16ee-\	.	.	.	.	.
.	.	.	16f/JJ	.	16dd\JJ)	.	.	.	.	16dd\JJ	.	.	.	.	.
!	!	!	!	!LO:DY:t=for.	!	!	!	!	!	!	!	!	!	!	!
8E-/J	.	.	16g/LL	f	16ee-'\LL	f	.	.	.	8ee-\	-na	.	.	.	.
.	.	.	16b-/	.	16bb-'\	.	.	.	.	.	.	.	.	.	.
8r	.	.	16g/	.	16gg'\	.	.	.	.	8r	.	.	.	.	.
.	.	.	16e-/JJ	.	16ee-'\JJ	.	.	.	.	.	.	.	.	.	.
=56	=56	=56	=56	=56	=56	=56	=56	=56	=56	=56	=56	=56	=56	=56	=56
8BB-/L	7	.	16b-/LL	.	16b-/LL	.	2ryy	2ryy	2ryy	2r	.	2ryy	2ryy	2ryy	2ryy
.	.	.	16a-/	.	16a-/	.	.	.	.	.	.	.	.	.	.
8BB-/	.	.	16f/	.	16f/	.	.	.	.	.	.	.	.	.	.
.	.	.	16d/JJ	.	16d/JJ	.	.	.	.	.	.	.	.	.	.
8BB-/	.	.	16B-/LL	.	16B-/LL	.	.	.	.	.	.	.	.	.	.
.	.	.	16B-/	.	16A-/	.	.	.	.	.	.	.	.	.	.
8BB-/J	.	.	16f/	.	16f/	.	.	.	.	.	.	.	.	.	.
.	.	.	16A-/JJ	.	16A-/JJ	.	.	.	.	.	.	.	.	.	.
=57	=57	=57	=57	=57	=57	=57	=57	=57	=57	=57	=57	=57	=57	=57	=57
16r	.	.	8A-/L	.	8A-/L	.	2ryy	2ryy	2ryy	4r	.	2ryy	2ryy	2ryy	2ryy
16E-'/LL	.	.	.	.	.	.	.	.	.	.	.	.	.	.	.
16BB-'/	.	.	8G/J	.	8G/J	.	.	.	.	.	.	.	.	.	.
16GG'/JJ	.	.	.	.	.	.	.	.	.	.	.	.	.	.	.
8EE-'/	.	.	8r	.	8r	.	.	.	.	8r	.	.	.	.	.
8r	.	.	16G/LL	.	16b-\LL	p	.	.	.	16b-\	Stel-	.	.	.	.
.	.	.	16g/JJ	p	16ee-\JJ	.	.	.	.	16ee-\	-la	.	.	.	.
!	!	!	!LO:LB:g=original	!	!	!	!	!	!	!	!	!	!	!	!
=58	=58	=58	=58	=58	=58	=58	=58	=58	=58	=58	=58	=58	=58	=58	=58
*	*	*	*	*	*	*	*	*	*	*	*ij	*	*	*	*
8E-\L	.	.	(8.g/L	.	(8.ee-\L	.	2ryy	2ryy	2ryy	8.ee-\L	Stel-	2ryy	2ryy	2ryy	2ryy
8E-\	.	.	.	.	.	.	.	.	.	.	.	.	.	.	.
.	.	.	32a-/LL	.	32ff\LL	.	.	.	.	32ff\LL	.	.	.	.	.
.	.	.	32g/JJJ)	.	32ee-\JJJ)	.	.	.	.	32ee-\JJJ	.	.	.	.	.
!	!	!	!	!	!LO:LB:g=original	!	!	!	!	!	!	!	!	!	!
8E-\J	.	.	8g/L	.	(8ee-\L	.	.	.	.	8ee-\	-la	.	.	.	.
*	*	*	*	*	*	*	*	*	*	*	*Xij	*	*	*	*
8r	.	.	16G/L	.	16b-\L	.	.	.	.	16b-\	Ma-	.	.	.	.
.	.	.	16b-/JJ	.	16gg\JJ)	.	.	.	.	16gg\	-tu-	.	.	.	.
!	!	!	!	!	!	!	!	!	!	!LO:LB:g=original	!	!	!	!	!
=59	=59	=59	=59	=59	=59	=59	=59	=59	=59	=59	=59	=59	=59	=59	=59
8BB-/L	.	.	8a-X/L	.	16aa-\LL	.	2ryy	2ryy	2ryy	16aa-\	-ti-	2ryy	2ryy	2ryy	2ryy
.	.	.	.	.	(16ff\	.	.	.	.	16ff\	-na	.	.	.	.
8BB-/	.	.	8g/J	.	16ee-\	.	.	.	.	16ee-\LL	O-	.	.	.	.
.	.	.	.	.	16dd\JJ)	.	.	.	.	16dd\JJ	.	.	.	.	.
!	!	!	!LO:TX:t=P:problem=mixed beam	!	!	!	!	!	!	!	!	!	!	!	!
8E-/J	.	.	8g/L	.	16ee-\LL	.	.	.	.	8.ee-\	-ra	.	.	.	.
.	.	.	.	.	16b-\	.	.	.	.	.	.	.	.	.	.
8r	.	.	16e-/L	.	16ee-\	.	.	.	.	.	.	.	.	.	.
.	.	.	16ee-\JJ	.	16gg-X\JJ	.	.	.	.	16bb-\	O-	.	.	.	.
!LO:LB:g=original	!	!	!	!	!	!	!	!	!	!	!	!	!	!	!
=60	=60	=60	=60	=60	=60	=60	=60	=60	=60	=60	=60	=60	=60	=60	=60
4An\	-7	.	4cc-X\	.	4gg\	.	2ryy	2ryy	2ryy	8gg\	-ra	2ryy	2ryy	2ryy	2ryy
.	.	.	.	.	.	.	.	.	.	8gg\	pro-	.	.	.	.
4A\	.	.	8cc-\L	.	16bb-\LL	.	.	.	.	8gg\L	-no-	.	.	.	.
.	.	.	.	.	(16gg\	.	.	.	.	.	.	.	.	.	.
.	.	.	8cc-\J	.	16ff\	.	.	.	.	16ff\L	.	.	.	.	.
.	.	.	.	.	16ee-\JJ)	.	.	.	.	16ee-\JJ	.	.	.	.	.
=61	=61	=61	=61	=61	=61	=61	=61	=61	=61	=61	=61	=61	=61	=61	=61
!	!	!	!	!	!LO:TX:a:t=|	!	!	!	!	!	!	!	!	!	!
.	.	.	.	.	.	.	.	.	.	8qqee-/	.	.	.	.	.
4B-\	.	.	8b-\L	.	8dd\L	.	2ryy	2ryy	2ryy	4dd\	-bis	2ryy	2ryy	2ryy	2ryy
.	.	.	8b-\	.	(8ff\	.	.	.	.	.	.	.	.	.	.
4r	.	.	8b-\J	.	8dd\J)	.	.	.	.	4r	.	.	.	.	.
.	.	.	8r	.	8r	.	.	.	.	.	.	.	.	.	.
=62	=62	=62	=62	=62	=62	=62	=62	=62	=62	=62	=62	=62	=62	=62	=62
4BB-/	.	.	16r	.	16r	.	2ryy	2ryy	2ryy	8ff\	Stel-	2ryy	2ryy	2ryy	2ryy
!	!	!	!	!	!LO:TX:a:t=|	!LO:DY:t=pia	!	!	!	!	!	!	!	!	!
.	.	.	(16f/LL	p	16ff\LL	p	.	.	.	.	.	.	.	.	.
.	.	.	16e-/	.	(16ee-\	.	.	.	.	8ff\	-la	.	.	.	.
.	.	.	16d/JJ)	.	16dd\JJ)	.	.	.	.	.	.	.	.	.	.
4r	.	.	16c/LL	.	(16cc\LL	.	.	.	.	8ff\	Ma-	.	.	.	.
.	.	.	16B-/	.	16b-\)	.	.	.	.	.	.	.	.	.	.
!	!	!	!	!	!LO:TX:a:t=|	!	!	!	!	!	!	!	!	!	!
.	.	.	16f/	.	16ff\	f	.	.	.	8aa-X\	-tu-	.	.	.	.
!	!	!	!	!	!LO:TX:a:t=|	!	!	!	!	!	!	!	!	!	!
.	.	.	16a-/JJ	.	16aa-\JJ	.	.	.	.	.	.	.	.	.	.
!	!	!	!LO:PB:g=original	!	!	!	!	!	!	!	!	!	!	!	!
=63	=63	=63	=63	=63	=63	=63	=63	=63	=63	=63	=63	=63	=63	=63	=63
4E-\	.	.	16r	.	16r	.	2ryy	2ryy	2ryy	16aa-\LL	-ti-	2ryy	2ryy	2ryy	2ryy
!	!	!	!	!	!LO:TX:a:t=|	!LO:DY:t=pia.	!	!	!	!	!	!	!	!	!
.	.	.	(16g/LL	.	16gg\LL	p	.	.	.	16gg\JJ	.	.	.	.	.
.	.	.	16b-/	.	(16bb-\	.	.	.	.	8gg\	-na	.	.	.	.
.	.	.	16g/JJ)	.	16gg\JJ)	.	.	.	.	.	.	.	.	.	.
4r	.	.	(16f/LL	.	(16ff\LL	.	.	.	.	4r	.	.	.	.	.
.	.	.	16e-/)	.	16ee-\)	.	.	.	.	.	.	.	.	.	.
!	!	!	!	!	!LO:TX:a:t=|	!LO:DY:t=for&colon;	!	!	!	!	!	!	!	!	!
.	.	.	16d'/	.	16dd\	f	.	.	.	.	.	.	.	.	.
!	!	!	!	!	!LO:TX:a:t=|	!	!	!	!	!	!	!	!	!	!
.	.	.	16e-'/JJ	.	16ee-\JJ	.	.	.	.	.	.	.	.	.	.
!	!	!	!	!	!LO:PB:g=original	!	!	!	!	!LO:LB:g=original	!	!	!	!	!
=64	=64	=64	=64	=64	=64	=64	=64	=64	=64	=64	=64	=64	=64	=64	=64
4A-\	.	.	8.a-/L	.	8.ccT\L	.	2ryy	2ryy	2ryy	8.cc\	Ma-	2ryy	2ryy	2ryy	2ryy
.	.	.	32g/LL	.	32b-\LL	.	.	.	.	32b-\LLL	-tu-	.	.	.	.
.	.	.	32f/JJJ	.	32a-\JJJ	.	.	.	.	32a-\JJJ	.	.	.	.	.
!LO:TX:t=P:problem=mixed beam	!	!	!	!	!	!	!	!	!	!	!	!	!	!	!
8B-\L	.	.	8e-/L	.	8g/L	.	.	.	.	8g/L	-ti-	.	.	.	.
8BB-/J	.	.	8d/J	.	8fT/J	.	.	.	.	8f/J	.	.	.	.	.
=65	=65	=65	=65	=65	=65	=65	=65	=65	=65	=65	=65	=65	=65	=65	=65
!	!	!	!LO:TX:t=P:problem=mixed beam	!	!LO:TX:t=P:problem=mixed beam	!	!	!	!	!	!	!	!	!	!
8E-\	.	.	16e-/LL 16G/	.	16e-/LL 16G/	.	2ryy	2ryy	2ryy	4e-/	-na	2ryy	2ryy	2ryy	2ryy
.	.	.	16gg\J	.	16gg\J	.	.	.	.	.	.	.	.	.	.
8r	.	.	8bb-\J	f	8bb-/J	f	.	.	.	.	.	.	.	.	.
4B-\	6 4	.	16r	.	16r	.	.	.	.	8r	.	.	.	.	.
!	!	!	!	!	!	!LO:DY:t=pia	!	!	!	!	!	!	!	!	!
.	.	.	(16g/LL	p	(16gg\LL	p	.	.	.	.	.	.	.	.	.
.	.	.	16b-/	.	16bb-\	.	.	.	.	16r	.	.	.	.	.
.	.	.	16en/JJ)	.	16een\JJ)	.	.	.	.	16een\	O-	.	.	.	.
=66	=66	=66	=66	=66	=66	=66	=66	=66	=66	=66	=66	=66	=66	=66	=66
!	!	!	!LO:TX:t=P:problem=zapis łuku niejednoznaczny	!	!LO:TX:t=P:problem=zapis łuku niejednoznaczny	!	!	!	!	!	!	!	!	!	!
4A-\	6	.	(16f/LL	.	(16ff\LL	.	2ryy	2ryy	2ryy	8ff\	-ra	2ryy	2ryy	2ryy	2ryy
.	.	.	16g/	.	16gg\	.	.	.	.	.	.	.	.	.	.
.	.	.	16a-/	.	16aa-\	.	.	.	.	16aa-\LL	pro-	.	.	.	.
.	.	.	16f/JJ)	.	16ff\JJ)	.	.	.	.	16ff\JJ	.	.	.	.	.
!	!	!	!	!	!LO:TX:t=P:problem=zapis łuku niejednoznaczny	!	!	!	!	!	!	!	!	!	!
4B-\	7	.	16e-X/LL	.	(16ee-X\LL	.	.	.	.	16ee-\LL	-no-	.	.	.	.
.	.	.	16d/	.	16dd\	.	.	.	.	16dd\	.	.	.	.	.
.	.	.	16c/	.	16cc\	.	.	.	.	16cc\	.	.	.	.	.
.	.	.	16B-/JJ	.	16b-\JJ)	.	.	.	.	16b-\JJ	.	.	.	.	.
=67	=67	=67	=67	=67	=67	=67	=67	=67	=67	=67	=67	=67	=67	=67	=67
!	!	!	!LO:TX:t=P:problem=mixed beam	!	!	!	!	!	!	!	!	!	!	!	!
8E-\	.	.	16.e-/LL 16.G/	.	16.ee-\LL	.	2ryy	2ryy	2ryy	4ee-\	-bis	2ryy	2ryy	2ryy	2ryy
.	.	.	32gg\JK	.	32gg\JK	.	.	.	.	.	.	.	.	.	.
8r	.	.	8bb-\J	f	8bb-\J	f	.	.	.	.	.	.	.	.	.
4B-\	6 4	.	16r	.	16r	.	.	.	.	8r	.	.	.	.	.
!	!	!	!	!LO:DY:t=piano	!LO:TX:a:t=|	!LO:DY:t=pia	!	!	!	!	!	!	!	!	!
.	.	.	(16g/LL	p	(16gg\LL	p	.	.	.	.	.	.	.	.	.
.	.	.	16b-/	.	16bb-\	.	.	.	.	16r	.	.	.	.	.
.	.	.	16en/JJ)	.	16een\JJ)	.	.	.	.	16een\	O-	.	.	.	.
!	!	!	!LO:LB:g=original	!	!	!	!	!	!	!	!	!	!	!	!
=68	=68	=68	=68	=68	=68	=68	=68	=68	=68	=68	=68	=68	=68	=68	=68
!	!	!	!LO:TX:t=P:problem=zapis łuku niejednoznaczny	!	!LO:TX:t=P:problem=zapis łuku niejednoznaczny	!	!	!	!	!	!	!	!	!	!
4A-\	6	.	(16f/LL	.	(16ff\LL	.	2ryy	2ryy	2ryy	8ff\	-ra	2ryy	2ryy	2ryy	2ryy
.	.	.	16g/	.	16gg\	.	.	.	.	.	.	.	.	.	.
.	.	.	16a-/	.	16aa-\	.	.	.	.	16aa-\LL	pro-	.	.	.	.
.	.	.	16f/JJ)	.	16ff\JJ)	.	.	.	.	16ff\JJ	.	.	.	.	.
!	!	!	!LO:TX:t=P:problem=zapis łuku niejednoznaczny	!	!	!	!	!	!	!	!	!	!	!	!
4B-\	7	.	(16e-X/LL	.	(16ee-X\LL	.	.	.	.	16ee-\LL	-no-	.	.	.	.
.	.	.	16d/	.	16dd\	.	.	.	.	16dd\JJ	.	.	.	.	.
.	.	.	16c/	.	16cc\	.	.	.	.	16cc\LL	-bis	.	.	.	.
.	.	.	16B-/JJ)	.	16b-\JJ)	.	.	.	.	16b-\JJ	.	.	.	.	.
!	!	!	!	!	!LO:LB:g=original	!	!	!	!	!	!	!	!	!	!
=69	=69	=69	=69	=69	=69	=69	=69	=69	=69	=69	=69	=69	=69	=69	=69
8E-\L	8	.	16e-/LL	.	8.ee-\L	.	2ryy	2ryy	2ryy	8.ee-\L	O-	2ryy	2ryy	2ryy	2ryy
!	!	!	!LO:TX:t=P:problem=zapis łuku niejednoznaczny	!	!	!	!	!	!	!	!	!	!	!	!
.	.	.	(16f/	.	.	.	.	.	.	.	.	.	.	.	.
8E-\	_	.	16g/	.	.	.	.	.	.	.	.	.	.	.	.
.	.	.	16a-X/JJ)	.	32ff\LL	.	.	.	.	32ff\LL	.	.	.	.	.
.	.	.	.	.	32ee-\JJJ	.	.	.	.	32ee-\JJJ	.	.	.	.	.
!	!	!	!	!	!	!	!	!	!	!LO:LB:g=original	!	!	!	!	!
!	!	!	!LO:TX:t=P:problem=mixed beam	!	!	!	!	!	!	!	!	!	!	!	!
8E-\	.	.	16b-\LL	.	4ddd-X\	.	.	.	.	8dd-X\	-ra	.	.	.	.
.	.	.	16cc\	.	.	.	.	.	.	.	.	.	.	.	.
8E-\J	-7	.	16dd-X\	.	.	.	.	.	.	8dd-\	O-	.	.	.	.
.	.	.	16g/JJ	.	.	.	.	.	.	.	.	.	.	.	.
!LO:LB:g=original	!	!	!	!	!	!	!	!	!	!	!	!	!	!	!
=70	=70	=70	=70	=70	=70	=70	=70	=70	=70	=70	=70	=70	=70	=70	=70
!LO:TX:t=P:problem=mixed beam	!	!	!	!	!	!	!	!	!	!	!	!	!	!	!
8A-\L	6 5	.	(8.a-\L	.	8.ccc\L	.	2ryy	2ryy	2ryy	8cc\	-ra	2ryy	2ryy	2ryy	2ryy
8A-\	.	.	.	.	.	.	.	.	.	16aa-\LL	pro-	.	.	.	.
.	.	.	32cc\LL	.	32aa-\LL	.	.	.	.	16ff\JJ	.	.	.	.	.
.	.	.	32a-\JJJ)	.	32ff\JJJ	.	.	.	.	.	.	.	.	.	.
8B-\	.	.	8g/L	.	8ee-\L	.	.	.	.	8ee-\L	-no-	.	.	.	.
8BB-/J	.	.	8f/J	.	8ddt\J	.	.	.	.	8dd\J	.	.	.	.	.
=71	=71	=71	=71	=71	=71	=71	=71	=71	=71	=71	=71	=71	=71	=71	=71
!LO:TX:t=P:problem=mixed beam	!	!	!	!	!LO:TX:t=P:problem=mixed beam	!	!	!	!	!	!	!	!	!	!
8E-\L	.	.	16g'/LL	.	16ee-\LL	.	2ryy	2ryy	2ryy	4ee-\	-bis.	2ryy	2ryy	2ryy	2ryy
.	.	.	(32g/L	.	32g/L	.	.	.	.	.	.	.	.	.	.
.	.	.	32a-/JJJ)	.	32a-/J	.	.	.	.	.	.	.	.	.	.
8BB-\	.	.	16b-'/LL	.	16b-/	.	.	.	.	.	.	.	.	.	.
.	.	.	16g'/JJ	.	16g/JJ	.	.	.	.	.	.	.	.	.	.
8EE-/J	.	.	8e-/ 8G/	.	8e-/ 8G/	.	.	.	.	4r	.	.	.	.	.
8r	.	.	8r	.	8r	.	.	.	.	.	.	.	.	.	.
=72	=72	=72	=72	=72	=72	=72	=72	=72	=72	=72	=72	=72	=72	=72	=72
8E-\L	.	f	16r	.	16r	.	2ryy	2ryy	2ryy	0r	.	2ryy	2ryy	2ryy	2ryy
.	.	.	(16b-\LL	f	16b-/LL	f	.	.	.	.	.	.	.	.	.
8E-\J	.	.	16a-\	.	16a-/	.	.	.	.	.	.	.	.	.	.
.	.	.	16g\JJ)	.	16g/JJ	.	.	.	.	.	.	.	.	.	.
!	!	!	!LO:TX:t=P:problem=mixed beam	!	!	!	!	!	!	!	!	!	!	!	!
8r	.	.	(16f/LL	.	(16f/LL	.	.	.	.	.	.	.	.	.	.
.	.	.	16e-/)	.	16e-/JJ)	.	.	.	.	.	.	.	.	.	.
8E-\	n4	.	(16ee-\	.	(16ee-\LL	.	.	.	.	.	.	.	.	.	.
.	.	.	16an\JJ)	.	16an\JJ)	.	.	.	.	.	.	.	.	.	.
!	!	!	!LO:LB:g=original	!	!	!	!	!	!	!	!	!	!	!	!
=73	=73	=73	=73	=73	=73	=73	=73	=73	=73	=73	=73	=73	=73	=73	=73
8D\L	6	.	(16b-\LL	.	(16b-\LL	.	2ryy	2ryy	2ryy	.	.	2ryy	2ryy	2ryy	2ryy
.	.	.	16ff\	.	16ff\	.	.	.	.	.	.	.	.	.	.
8B-\J	.	.	16ee-\	.	16ee-\	.	.	.	.	.	.	.	.	.	.
.	.	.	16dd\JJ)	.	16dd\JJ)	.	.	.	.	.	.	.	.	.	.
8r	.	.	(16cc\LL	.	(16cc\LL	.	.	.	.	.	.	.	.	.	.
.	.	.	16b-\)	.	16b-\)	.	.	.	.	.	.	.	.	.	.
8A-\	.	.	(16bb-\	.	(16bb-\	.	.	.	.	.	.	.	.	.	.
.	.	.	16dd\JJ)	.	16dd\JJ)	.	.	.	.	.	.	.	.	.	.
=74	=74	=74	=74	=74	=74	=74	=74	=74	=74	=74	=74	=74	=74	=74	=74
!LO:TX:t=P:problem=mixed beam	!	!	!LO:TUP:a:problem=klamra łukowa, kropka zamiast numeru	!	!LO:TUP:a:problem=klamra łukowa, kropka zamiast numeru	!	!	!	!	!	!	!	!	!	!
8G\L	6	.	24ee-\LL	.	24ee-\LL	.	2ryy	2ryy	2ryy	.	.	2ryy	2ryy	2ryy	2ryy
.	.	.	24b-\	.	24b-\	.	.	.	.	.	.	.	.	.	.
.	.	.	24g\JJ	.	24ee-\JJ	.	.	.	.	.	.	.	.	.	.
!	!	!	!LO:TUP:a:problem=klamra łukowa, kropka zamiast numeru	!	!LO:TUP:a:problem=klamra łukowa, łuczek zamiast numeru	!	!	!	!	!	!	!	!	!	!
8A-\	6	.	24a-/LL	.	24cc\LL	.	.	.	.	.	.	.	.	.	.
.	.	.	24g/	.	24b-\	.	.	.	.	.	.	.	.	.	.
.	.	.	24f/JJ	.	24a-\JJ	.	.	.	.	.	.	.	.	.	.
!	!	!	!	!	!LO:LB:g=original	!	!	!	!	!	!	!	!	!	!
8B-\	4	.	8e-/L	.	8g/L	.	.	.	.	.	.	.	.	.	.
!	!	!	!	!	!LO:SIC:s:o:v:t= t a nie tr	!	!	!	!	!	!	!	!	!	!
8BB-/J	3	.	8d/J	.	8fT/J	.	.	.	.	.	.	.	.	.	.
=75	=75	=75	=75	=75	=75	=75	=75	=75	=75	=75	=75	=75	=75	=75	=75
!	!	!	!	!LO:DY:t=po&colon;	!LO:TX:t=P:problem=mixed beam	!	!	!	!	!	!	!	!	!	!
4E-\	.	.	16e-/LL 16G/	p	16e-/LL 16G/	.	2ryy	2ryy	2ryy	.	.	2ryy	2ryy	2ryy	2ryy
!	!	!	!LO:TX:t=P:problem=zapis łuku niejednoznaczny	!	!	!LO:DY:t=pia	!	!	!	!	!	!	!	!	!
.	.	.	(16b-/	.	(16bb-\	p	.	.	.	.	.	.	.	.	.
.	.	.	16g/	.	16gg\	.	.	.	.	.	.	.	.	.	.
.	.	.	16e-/JJ)	.	16ee-\JJ)	.	.	.	.	.	.	.	.	.	.
!	!	!	!	!	!LO:TX:t=P:problem=zapis łuku niejednoznaczny	!	!	!	!	!	!	!	!	!	!
8r	.	.	16B-/LL	f	(16b-/LL	f	.	.	.	.	.	.	.	.	.
.	.	.	(16f/	.	16a-/	.	.	.	.	.	.	.	.	.	.
8B-\	7	.	16d/	.	16f/)	.	.	.	.	.	.	.	.	.	.
.	.	.	16A-/JJ)	.	16d/JJ	.	.	.	.	.	.	.	.	.	.
!LO:LB:g=original	!	!	!	!	!	!	!	!	!	!	!	!	!	!	!
=76	=76	=76	=76	=76	=76	=76	=76	=76	=76	=76	=76	=76	=76	=76	=76
!	!	!	!	!	!LO:TX:a:t=|	!	!	!	!	!	!	!	!	!	!
!	!	!	!LO:TX:t=P:problem=mixed beam	!LO:DY:t=po&colon;	!LO:TX:t=P:problem=mixed beam	!LO:DY:t=pia	!	!	!	!	!	!	!	!	!
4E-\	.	.	16G'/LL	p	16e-/LL	p	2ryy	2ryy	2ryy	1r	.	2ryy	2ryy	2ryy	2ryy
.	.	.	(16b-\	.	(16bb-\	.	.	.	.	.	.	.	.	.	.
.	.	.	16g\	.	16gg\	.	.	.	.	.	.	.	.	.	.
.	.	.	16e-\JJ)	.	16ee-\JJ)	.	.	.	.	.	.	.	.	.	.
!	!	!	!LO:TX:t=P:problem=zapis łuku niejednoznaczny	!	!LO:TX:t=P:problem=zapis łuku niejednoznaczny	!	!	!	!	!	!	!	!	!	!
8r	.	.	16B-'/LL	f	(16b-/LL	f	.	.	.	.	.	.	.	.	.
.	.	.	(16f/	.	16a-/	.	.	.	.	.	.	.	.	.	.
8BB-/	7	.	16d/	.	16f/)	.	.	.	.	.	.	.	.	.	.
.	.	.	16A-/JJ)	.	16d/JJ	.	.	.	.	.	.	.	.	.	.
=77	=77	=77	=77	=77	=77	=77	=77	=77	=77	=77	=77	=77	=77	=77	=77
8E-/L	.	.	16G/LL	.	16e-/LL	.	2ryy	2ryy	2ryy	.	.	2ryy	2ryy	2ryy	2ryy
.	.	.	32G/L	.	32G/L	.	.	.	.	.	.	.	.	.	.
.	.	.	32A-/JJJ	.	32A-/JJJ	.	.	.	.	.	.	.	.	.	.
8BB-/	.	.	16B-/LL	.	16B-/LL	.	.	.	.	.	.	.	.	.	.
.	.	.	16G/JJ	.	16G/JJ	.	.	.	.	.	.	.	.	.	.
8EE-/J	.	.	8e-/ 8G/	.	8e-/ 8G/	.	.	.	.	.	.	.	.	.	.
8r	.	.	8r	.	8r	.	.	.	.	.	.	.	.	.	.
==	==	==	==	==	==	==	==	==	==	==	==	==	==	==	==
*-	*-	*-	*-	*-	*-	*-	*-	*-	*-	*-	*-	*-	*-	*-	*-
!!!system-decoration: [(s1,s2)][(s3,s4)][(s5,s6,s7,s8)][(s9,s10)][(s11)]
!!!RDF**dynam: p = pia
!!!RDF**dynam: f = for
!!!END: Katarzyna Serwa
!!!END: 2020-09-13
!!!ENC: Leszek Kubiak
!!!END: 2022-01-27
